!!!id: 18xx:2449
!!!COM: Stefani, Józef
!!!OTL: Quartetto – Allegro moderato
!!!PDT: 1825
!!!SMS-siglum: PL-Wtm
!!!SMS-shelfmark: R 1432
!!!NIFC-rismID: 1001116254
!!!URL-scan: http://repozytorium.nifc.pl/skany/pl-wtm-nut--r1432
!!!ONB-nifc: UWAGA: części Kwartetu: 1. Allegro moderato, 2. Adagio, 3. Menuetto, 4. Finale
!!!SMS-variant:
!!!SMS-altvar:
**kern	**dynam	**kern	**dynam	**kern	**dynam	**kern	**dynam
*part4	*part4	*part3	*part3	*part2	*part2	*part1	*part1
*staff4	*	*staff3	*	*staff2	*	*staff1	*
*I"Violoncello	*	*I"Viole	*	*I"Violino 2.	*	*I"Violino 1o	*
*clefF4	*	*clefC3	*	*clefG2	*	*clefG2	*
*k[b-e-a-]	*	*k[b-e-a-]	*	*k[b-e-a-]	*	*k[b-e-a-]	*
*M4/4	*	*M4/4	*	*M4/4	*	*M4/4	*
*met(c)	*	*met(c)	*	*met(c)	*	*met(c|)	*
*2\right	*	*2\right	*	*2\right	*	*2\right	*
*all\right	*	*all\right	*	*all\right	*	*all\right	*
!	!	!	!	!	!	!LO:TX:t=P:problem:wprowadzamy wszystkie poprawki z adnotacjami: takt po poprawkach głównego skryptora [konsultacja z E.Z.]	!
!	!	!	!	!	!	!LO:TX:t=P:problem:all\middle or right:global	!
!	!	!	!	!	!	!LO:TX:t=P:problem:metrum C|	!
!	!	!	!	!	!	!LO:TX:a:t=All.o. Mod.to.	!
16BB-|/KL	.	16r	.	16r	.	16r	.
8.E-|/	.	4r	.	4r	.	4r	.
(16F/Jk	.	.	.	.	.	.	.
=1	=1	=1	=1	=1	=1	=1	=1
!	!	!LO:TX:a:t=pizic&colon;	!	!LO:TX:a:t=pizic	!	!	!
2G|\)	.	4r	.	4r	.	1r	.
.	.	4e-\	.	4g 4B-/	.	.	.
2E-|\	.	4r	.	4r	.	.	.
.	.	4e-\	.	4g 4B-/	.	.	.
=2	=2	=2	=2	=2	=2	=2	=2
4D|\	.	4r	.	4r	.	1r	.
4F|\	.	4d\	.	4a- 4B-/	.	.	.
8.r	.	4d\	.	4a- 4B-/	.	.	.
16BB-|\KL	.	.	.	.	.	.	.
8.F|\	.	4r	.	4r	.	.	.
(16G\Jk	.	.	.	.	.	.	.
=3	=3	=3	=3	=3	=3	=3	=3
2A-\)	.	4d\	.	4r	.	1r	.
.	.	4r	.	4a- 4B-/	.	.	.
2F|\	.	4d\	.	4r	.	.	.
.	.	4r	.	4a- 4B-/	.	.	.
=4	=4	=4	=4	=4	=4	=4	=4
4E-|\	.	4r	.	4r	.	1r	.
4G|\	.	4e-\	.	4g 4B-/	.	.	.
8.r	.	4e-\	.	4g 4B-/	.	.	.
16E-|\KL	.	.	.	.	.	.	.
8.G|\	.	4r	.	4r	.	.	.
(16A-\Jk	.	.	.	.	.	.	.
=5	=5	=5	=5	=5	=5	=5	=5
2B-\)	.	4r	.	4r	.	1r	.
.	.	4e-\	.	4g 4B-/	.	.	.
8A-\L	.	4e-\	.	4g 4B-/	.	.	.
8G\	.	.	.	.	.	.	.
8F\	.	4r	.	4r	.	.	.
8E-\J	.	.	.	.	.	.	.
!!LO:LB:g=original
=6	=6	=6	=6	=6	=6	=6	=6
2c\	.	4r	.	4r	.	1r	.
.	.	4e-\	.	4f 4A-/	.	.	.
(8B-\L	.	4e-\	.	4f 4A-/	.	.	.
8A-\	.	.	.	.	.	.	.
8G\	.	4r	.	4r	.	.	.
8F\J)	.	.	.	.	.	.	.
=7	=7	=7	=7	=7	=7	=7	=7
4.E-\	.	4r	.	4r	.	1r	.
.	.	4e-\	.	4g 4B-/	.	.	.
8G\	.	.	.	.	.	.	.
(4.BB-/	.	4r	.	4r	.	.	.
.	.	4f\	.	4a- 4B-/	.	.	.
16C/LL	.	.	.	.	.	.	.
16D/JJ	.	.	.	.	.	.	.
=8	=8	=8	=8	=8	=8	=8	=8
!	!	!	!	!LO:TX:a:t=l’arco	!	!	!
4E-\)	.	4e-\	.	4g 4B-/	.	2r	.
4EE-/	.	4e- 4G/	.	4ee- 4g 4B-\	.	.	.
4EE-/	.	4e- 4G/	.	4ee- 4g 4B-\	.	8.r	.
.	.	.	.	.	.	16b-|\KL	.
4r	.	4r	.	4r	.	8.ee-|\	.
.	.	.	.	.	.	(16ff|\Jk	.
=9	=9	=9	=9	=9	=9	=9	=9
4E-\	.	4r	.	4r	.	2gg\)	.
4r	.	4e-\	.	4g 4B-/	.	.	.
4E-\	.	4r	.	4r	.	2ee-|\	.
4r	.	4e-\	.	4g 4B-/	.	.	.
=10	=10	=10	=10	=10	=10	=10	=10
!	!	!	!	!LO:TX:t=P:problem:takt po poprawkach głównego skryptora	!	!	!
4F\	.	4r	.	4r	.	4dd|\	.
4BB-/	.	4d\	.	4a- 4B-/	.	4ff|\	.
4BB-/	.	4d\	.	4a- 4B-/	.	8.r	.
.	.	.	.	.	.	16b-|\KL	.
4r	.	4r	.	4r	.	8.ff|\	.
.	.	.	.	.	.	(16gg\Jk	.
=11	=11	=11	=11	=11	=11	=11	=11
4BB-/	.	4r	.	4r	.	2aa-\)	.
4r	.	4d\	.	4a- 4B-/	.	.	.
4BB-/	.	4r	.	4r	.	2ff|\	.
4r	.	4d\	.	4a- 4B-/	.	.	.
=12	=12	=12	=12	=12	=12	=12	=12
4E-\	.	4r	.	4r	.	4ee-|\	.
4EE-/	.	4e-\	.	4g 4B-/	.	4gg|\	.
4EE-/	.	4e-\	.	4g 4B-/	.	8.r	.
.	.	.	.	.	.	16ee-|\KL	.
4r	.	4r	.	4r	.	8.gg|\	.
.	.	.	.	.	.	(16aa-\Jk	.
=13	=13	=13	=13	=13	=13	=13	=13
!	!LO:DY:a	!	!	!	!	!	!
8.r	mf	8.r	.	8.r	mf	8bb-\)	.
.	.	.	.	.	.	8r	.
16GG/KL	.	16B-/KL	.	16e-/KL	.	.	.
8.BB-/	.	8.B-/	.	8.e-/	.	[4bb-|^<\	.
16E-/Jk	.	16B-/Jk	.	16e-/Jk	.	.	.
4GG/	.	4B-/	.	4e-/	.	8bb-\L]	<
.	.	.	.	.	.	(16eee-\L	.
.	.	.	.	.	.	16ddd\JJ	.
4r	.	4r	.	4r	.	16ccc\LL	[ >
.	.	.	.	.	.	16bb-\	.
.	.	.	.	.	.	16aa-\	.
.	.	.	.	.	.	16gg\JJ	]
!!LO:LB:g=original
=14	=14	=14	=14	=14	=14	=14	=14
8.r	.	8.r	.	8.r	.	8ff\)	.
.	.	.	.	.	.	8r	.
16AA-/KL	.	16c/KL	.	16f/KL	.	.	.
8.C/	.	8.c/	.	8.f/	.	[4ccc^<\	.
16F/Jk	.	16c/Jk	.	16f/Jk	.	.	.
4AA-/	.	4c/	.	4f/	.	8ccc\L]	<
.	.	.	.	.	.	16ddd\L	.
.	.	.	.	.	.	16ccc\JJ	[ >
4r	.	4r	.	4r	.	16bb-\LL	.
.	.	.	.	.	.	16aa-\	]
.	.	.	.	.	.	16gg\	.
.	.	.	.	.	.	16ff\JJ	.
=15	=15	=15	=15	=15	=15	=15	=15
!LO:TX:t=P:problem:takt po poprawkach głównego skryptora	!	!LO:TX:t=P:problem:takt po poprawkach głównego skryptora	!	!	!	!LO:TX:t=P:problem:takt po poprawkach głównego skryptora	!
8.BB-/L	.	8.r	f	8.r	.	(16ee-\LL	f
.	.	.	.	.	.	16ff\)	.
.	.	.	.	.	.	16gg'\	<
16E-/K	.	16e-\KL	.	16gKL 16B-/	f	16aa-'\JJ	.
8.G/	.	8.e-\	.	8.g 8.B-/	.	16bb-'\LL	.
.	.	.	.	.	.	16ccc|\	.
.	.	.	.	.	.	16ddd|\	.
16E-/Jk	.	16e-\Jk	.	16gJk 16B-/	.	16eee-|\JJ	.
8.BB-/L	.	8.f\L	.	8.a-L 8.B-/	.	(16ddd\LL	[
.	.	.	.	.	.	16ccc\)	>
.	.	.	.	.	.	16bb-|\	.
16F/K	.	16f\K	.	16a-Jk 16B-/	.	16aa-|\JJ	.
8.D/	.	8.f\	.	8.a-L 8.B-/	.	16gg|\LL	.
.	.	.	.	.	.	16f'f\	.
.	.	.	.	.	.	16ee-'\	.
16BB-/Jk	.	(16f\Jk	.	16a-Jk 16B-/	.	16dd'\JJ	]
=16	=16	=16	=16	=16	=16	=16	=16
4E-\	.	2g\)	.	4g 4B-/	.	4ee-\	.
4r	.	.	.	4r	.	4r	.
8.r	.	2e-|\	.	2r	.	2r	.
16BB-|/KL	.	.	.	.	.	.	.
8.E-|/	.	.	.	.	.	.	.
(16G/Jk	.	.	.	.	.	.	.
=17	=17	=17	=17	=17	=17	=17	=17
2A-\)	.	4d|\	.	2r	.	1r	.
.	.	4f|\	.	.	.	.	.
2F|\	.	2r	.	8.r	.	.	.
.	.	.	.	16B-|/KL	.	.	.
.	.	.	.	8.f|/	.	.	.
.	.	.	.	(16g/Jk	.	.	.
=18	=18	=18	=18	=18	=18	=18	=18
4D/	.	2B-|>/	.	2a-/)	.	2r	.
4BB-/	.	.	.	.	.	.	.
2r	.	2d|\	.	2f|/	.	8.r	.
.	.	.	.	.	.	16b-|\KL	.
.	.	.	.	.	.	8.dd|\	.
.	.	.	.	.	.	(16ff\Jk	.
=19	=19	=19	=19	=19	=19	=19	=19
1r	.	4e-|\	.	4e-|/	.	2gg\)	.
.	.	4e-|\	.	4g|/	.	.	.
.	.	8.r	.	2r	.	2ee-|\	.
.	.	16B-|\KL	.	.	.	.	.
.	.	8.e-|\	.	.	.	.	.
.	.	(16g\Jk	.	.	.	.	.
=20	=20	=20	=20	=20	=20	=20	=20
2r	.	2a-\)	.	1r	.	(2cc|\	.
8.r	.	2f|\	.	.	.	4.aa-\)	.
16A-|\KL	.	.	.	.	.	.	.
8.G|\	.	.	.	.	.	.	.
.	.	.	.	.	.	8ff|\	.
16A-|\Jk	.	.	.	.	.	.	.
!!LO:PB:g=original
=21	=21	=21	=21	=21	=21	=21	=21
4B-\	.	8.e-\L	.	8.g/L	.	4.ee-|\	.
.	.	16g\K	.	16b-/K	.	.	.
4r	.	8.e-\	.	8.g/	.	.	.
.	.	.	.	.	.	8gg|\	.
.	.	16B-\Jk	.	16b-/Jk	.	.	.
4BB-/	.	8.d\L	.	8.a-/L	.	(4.b-\	.
.	.	16f\K	.	16b-/K	.	.	.
4r	.	8.d\	.	8.a-/	.	.	.
.	.	.	.	.	.	16cc\LL	.
.	.	16A-\Jk	.	16b-/Jk	.	16dd\JJ	.
=22	=22	=22	=22	=22	=22	=22	=22
!	!LO:DY:a	!LO:TX:t=P:problem:mixed beam	!	!	!	!	!
(>2E-^<\	fp	8.E-/L	.	8.g/L	f	4ee-\)	.
.	.	16e-\K	.	16gK 16B-/	p	.	.
.	.	8.e-\	.	8.g 8.B-/	.	4r	.
.	.	16e-\Jk	.	16gJk 16B-/	.	.	.
2G\	.	8.e-\L	.	8.gL 8.B-/	.	8.r	.
.	.	16e-\K	.	16gK 16B-/	.	16ee-|\KL	.
.	.	8.e-\	.	8.g 8.B-/	.	8.dd|\	.
.	.	16e-\Jk	.	16gJk 16B-/	.	16ee-|\Jk	.
=23	=23	=23	=23	=23	=23	=23	=23
2F\	.	8.f\L	.	8.a-L 8.B-/	.	(16dd\LL	.
.	.	.	.	.	.	16ee-\)	.
.	.	.	.	.	.	16ff|\	.
.	.	16f\K	.	16a-K 16B-/	.	16gg|\JJ	.
.	.	8.f\	.	8.a- 8.B-/	.	[4aa-|^<\	.
.	.	16f\Jk	.	16a-Jk 16B-/	.	.	.
*	*	*rep	*	*rep	*	*	*
2BB-/)	.	8.f\L	.	8.a-L 8.B-/	.	8.aa-\L]	.
.	.	16f\K	.	16a-K 16B-/	.	16b-|\K	.
.	.	8.f\	.	8.a- 8.B-/	.	8.cc|\	.
.	.	16f\Jk	.	16a-Jk 16B-/	.	16dd|\Jk	.
*	*	*Xrep	*	*Xrep	*	*	*
=24	=24	=24	=24	=24	=24	=24	=24
(>2E-\	.	8.e-\L	.	8.gL 8.B-/	.	(16ee-\LL	.
.	.	.	.	.	.	16dd\)	.
.	.	.	.	.	.	16ee-|\	.
.	.	16e-\K	.	16gK 16B-/	.	16ff|\JJ	.
!	!	!	!	!	!	!LO:N:vis=4.	!
.	.	8.e-\	.	8.g 8.B-/	.	[4gg^<|\	.
.	.	16e-\Jk	.	16gJk 16B-/	.	.	.
*	*	*rep	*	*rep	*	*	*
2G\	.	8.e-\L	.	8.gL 8.B-/	.	8.gg\L]	.
.	.	16e-\K	.	16gK 16B-/	.	16ee-|\K	.
.	.	8.e-\	.	8.g 8.B-/	.	8.dd|\	.
.	.	16e-\Jk	.	16gJk 16B-/	.	16ee-|\Jk	.
*	*	*Xrep	*	*Xrep	*	*	*
=25	=25	=25	=25	=25	=25	=25	=25
2F\	.	8.f\L	.	8.a-L 8.B-/	.	(16dd\LL	.
.	.	.	.	.	.	16ee-\)	.
.	.	.	.	.	.	16ff|\	.
.	.	16f\K	.	16a-K 16B-/	.	16gg|\JJ	.
.	.	8.f\	.	8.a- 8.B-/	.	[4aa-|^<\	.
.	.	16f\Jk	.	16a-Jk 16B-/	.	.	.
*	*	*rep	*	*rep	*	*	*
2BB-/)	.	8.f\L	.	8.a-L 8.B-/	.	8.aa-\L]	.
.	.	16f\K	.	16a-K 16B-/	.	16b-\K	.
.	.	8.f\	.	8.a- 8.B-/	.	8.cc\	.
.	.	16f\Jk	.	16a-Jk 16B-/	.	16dd\Jk	.
*	*	*Xrep	*	*Xrep	*	*	*
!!LO:LB:g=original
=26	=26	=26	=26	=26	=26	=26	=26
!	!LO:DY:a	!	!	!	!	!LO:TX:t=P:problem:mixed beam	!
(>2C^</	fp	4e-\	.	8.g/L	fp	8.ee-\L	fp
.	.	.	.	16e-K 16G^</	.	16c/K	.
.	.	4r	.	8.e- 8.G/	.	8.c/	.
.	.	.	.	16e-Jk 16G/	.	16c/Jk	.
2E-/	.	8.r	.	8.e-L 8.G/	.	8.c/L	.
.	.	16cc|\KL	.	16e-K 16G/	.	16c/K	.
!	!	!LO:TX:t=P:problem:rytm 8	!	!	!	!	!
.	.	8.bn|\	.	8.e- 8.G/	.	8.c/	.
.	.	16cc|\Jk	.	16e-Jk 16G/	.	16c/Jk	.
=27	=27	=27	=27	=27	=27	=27	=27
2D/	.	(16bn\LL	.	8.fL 8.G/	.	8.d/L	.
.	.	16cc\)	.	.	.	.	.
.	.	16dd|\	.	.	.	.	.
.	.	16ee-|\JJ	.	16fK 16G/	.	16d/K	.
.	.	[4ff^<\	.	8.f 8.G/	.	8.d/	.
.	.	.	.	16fJk 16G/	.	16d/Jk	.
*	*	*	*	*rep	*	*rep	*
2GG/)	.	8.ff\L]	.	8.fL 8.G/	.	8.d/L	.
.	.	16g|\K	.	16fK 16G/	.	16d/K	.
.	.	8.a-|\	.	8.f 8.G/	.	8.d/	.
.	.	16bn|\Jk	.	16fJk 16G/	.	16d/Jk	.
*	*	*	*	*Xrep	*	*Xrep	*
=28	=28	=28	=28	=28	=28	=28	=28
!	!	!LO:TX:t=P:problem:takt po poprawkach głównego skryptora	!	!	!	!	!
(>2C/	.	(16cc\LL	.	8.e-L 8.G/	.	8.c/L	.
.	.	16bn\)	.	.	.	.	.
.	.	16cc|\	.	.	.	.	.
.	.	16dd|\JJ	.	16e-K 16G/	.	16c/K	.
!	!	!LO:N:vis=4.	!	!	!	!	!
.	.	[4ee-^<\	.	8.e- 8.G/	.	8.c/	.
.	.	.	.	16e-Jk 16G/	.	16c/Jk	.
*	*	*	*	*rep	*	*rep	*
2E-/	.	8.ee-\L]	.	8.e-L 8.G/	.	8.c/L	.
.	.	16cc|\K	.	16e-K 16G/	.	16c/K	.
.	.	8.b|\	.	8.e- 8.G/	.	8.c/	.
.	.	16cc|\Jk	.	16e-Jk 16G/	.	16c/Jk	.
*	*	*	*	*Xrep	*	*Xrep	*
=29	=29	=29	=29	=29	=29	=29	=29
2D/	.	(16bn\LL	.	8.fL 8.G/	.	8.d/L	.
.	.	16cc\)	.	.	.	.	.
.	.	16dd'\	.	.	.	.	.
.	.	16ee-'\JJ	.	16fK 16G/	.	16d/K	.
.	.	[4ff^<\	.	8.f 8.G/	.	8.d/	.
.	.	.	.	16fJk 16G/	.	16d/Jk	.
*	*	*	*	*rep	*	*rep	*
2GG/)	.	8.ff\L]	.	8.fL 8.G/	.	8.d/L	.
.	.	16g|\K	.	16fK 16G/	.	16d/K	.
.	.	8.a-|\	.	8.f 8.G/	.	8.d/	.
.	.	16b|\Jk	.	16fJk 16G/	.	16d/Jk	.
*	*	*	*	*Xrep	*	*Xrep	*
=30	=30	=30	=30	=30	=30	=30	=30
!	!LO:DY:a	!	!	!	!	!LO:TX:t=P:problem:takt po poprawkach głównego skryptora	!
(>2AA-^</	fp	8.cc|\L	fp	4e- 4G/	.	8.c/L	fp
.	.	16e-K 16c|\	.	.	.	16a-/K	.
.	.	8.e- 8.c'\	.	4r	.	8.a-/	.
.	.	16e-Jk 16c'\	.	.	.	16a-/Jk	.
2C/	.	8.e-L 8.c\	.	8.r	.	8.a-/L	.
.	.	16e-K 16c\	.	16aa-X|\KL	.	16a-/K	.
.	.	8.e- 8.c\	.	8.gg|\	.	8.a-/	.
.	.	16e-Jk 16c\	.	16aa-|\Jk	.	16a-/Jk	.
=31	=31	=31	=31	=31	=31	=31	=31
2BB-/	.	8.e-L 8.d-X\	.	(16gg\LL	.	8.b-/L	.
.	.	.	.	16aa-\)	.	.	.
.	.	.	.	16bb-'\	.	.	.
.	.	16e-K 16d-\	.	16ccc'\JJ	.	16b-/K	.
.	.	8.e- 8.d-\	.	[4ddd-X^<\	.	8.b-/	.
.	.	16e-Jk 16d-\	.	.	.	16b-/Jk	.
*	*	*rep	*	*	*	*rep	*
2EE-/)	.	8.e-L 8.d-\	.	8.ddd-\L]	.	8.b-/L	.
.	.	16e-K 16d-\	.	16ee-|\K	.	16b-/K	.
.	.	8.e- 8.d-\	.	8.ff|\	.	8.b-/	.
.	.	16e-Jk 16d-\	.	16gg|\Jk	.	16b-/Jk	.
*	*	*Xrep	*	*	*	*Xrep	*
!!LO:LB:g=original
=32	=32	=32	=32	=32	=32	=32	=32
(2AA-/	.	8.e-L 8.c\	.	16aa-\LL	.	8.a-/L	.
.	.	.	.	16gg\	.	.	.
.	.	.	.	16aa-\	.	.	.
.	.	16e-K 16c\	.	16bb-\JJ	.	16a-/K	.
.	.	8.e- 8.c\	.	[4ccc^<\	.	8.a-/	.
.	.	16e-Jk 16c\	.	.	.	16a-/Jk	.
*	*	*rep	*	*	*	*rep	*
2C/	.	8.e-L 8.c\	.	8.ccc\L]	.	8.a-/L	.
.	.	16e-K 16c\	.	16aa-|\K	.	16a-/K	.
.	.	8.e- 8.c\	.	8.gg|\	.	8.a-/	.
.	.	16e-Jk 16c\	.	16aa-|\Jk	.	16a-/Jk	.
*	*	*Xrep	*	*	*	*Xrep	*
=33	=33	=33	=33	=33	=33	=33	=33
2BB-/	.	8.e-L 8.d-X\	.	(16gg\LL	.	8.b-/L	.
.	.	.	.	16aa-\)	.	.	.
.	.	.	.	16bb-'\	.	.	.
.	.	16e-K 16d-\	.	16ccc'\JJ	.	16b-/K	.
.	.	8.e- 8.d-\	.	[4ddd-X^<\	.	8.b-/	.
.	.	16e-Jk 16d-\	.	.	.	16b-/Jk	.
*	*	*rep	*	*	*	*rep	*
2EE-/)	.	8.e-L 8.d-\	.	8.ddd-\L]	.	8.b-/L	.
.	.	16e-K 16d-\	.	16ee-|\K	.	16b-/K	.
.	.	8.e- 8.d-\	.	8.ff|\	.	8.b-/	.
.	.	16e-Jk 16d-\	.	16gg|\Jk	.	16b-/Jk	.
*	*	*Xrep	*	*	*	*Xrep	*
=34	=34	=34	=34	=34	=34	=34	=34
!	!	!	!	!LO:TX:t=P:problem:takt po poprawkach głównego skryptora	!	!	!
!	!	!	!	!LO:TX:t=P:problem:mixed beam	!	!	!
4AA-/	.	8.e-L 8.c\	.	8.aa-\L	.	4a-/	.
.	.	16e-K 16c\	.	16a-K 16c/	.	.	.
4r	.	8.e- 8.c\	.	8.a- 8.c/	.	4r	.
.	.	16e-Jk 16c\	.	16a-Jk 16c/	.	.	.
(2AA-|^>/	.	8.d\L	.	8.fL 8.B-^>/	.	8.r	.
.	.	16d\K	.	16fK 16B-/	.	16b-|\KL	.
.	.	8.f\	.	8.f 8.B-/	.	8.cc|\	.
.	.	16f\Jk	.	16fJk 16B-/	.	16dd|\Jk	.
=35	=35	=35	=35	=35	=35	=35	=35
4GG/)	.	8.g\L	.	8.e-L 8.B-/	.	(16ee-\LL	.
.	.	.	.	.	.	16dd\	.
.	.	.	.	.	.	16ee-\	.
.	.	16g\K	.	16e-K 16B-/	.	16ff\JJ	.
4r	.	8.g\	.	8.e- 8.B-/	.	8gg\)	.
.	.	.	.	.	.	8r	.
.	.	16g\Jk	.	16e-Jk 16B-/	.	.	.
(2AA-|^>/	.	8.f\L	.	8.fL 8.B-^>/	.	8.r	.
.	.	16f\K	.	16fK 16B-/	.	16b-|\KL	.
.	.	8.f\	.	8.f 8.B-/	.	8.cc|\	.
.	.	16f\Jk	.	16fJk 16B-/	.	16dd|\Jk	.
=36	=36	=36	=36	=36	=36	=36	=36
4GG/)	.	8.g\L	.	8.e-L 8.B-/	.	(16ee-\LL	.
.	.	.	.	.	.	16dd\	.
.	.	.	.	.	.	16ee-\	.
.	.	16g\K	.	16e-K 16B-/	.	16ff\JJ	.
4r	.	8.g\	.	8.e- 8.B-/	.	8gg\)	.
.	.	.	.	.	.	8r	.
.	.	16g\Jk	.	16e-Jk 16B-/	.	.	.
(2AA-|^>/	.	8.f\L	.	8.fL 8.B-^>/	.	8.r	.
.	.	16f\K	.	16fK 16B-/	.	16b-|\KL	.
.	.	8.f\	.	8.f 8.B-/	.	8.cc|\	.
.	.	16f\Jk	.	16fJk 16B-/	.	16dd|\Jk	.
!!LO:PB:g=original
=37	=37	=37	=37	=37	=37	=37	=37
!LO:TX:t=P:problem:brak zakończenia łuku (początek pięciolinii)	!	!	!	!	!	!	!
4GG/)	.	8e-\	.	8g 8B-/	.	16ff\LL	.
.	.	.	.	.	.	16ee-\	.
.	.	(8e-'\L	.	(8gL 8B-'/	.	16dd\	.
.	.	.	.	.	.	16ee-\JJ	.
4r	.	8e-'\	.	8g 8B-'/	.	16dd\LL	.
.	.	.	.	.	.	16ee-\	.
.	.	8e-'\J)	.	8gJ 8B-'/)	.	16gg\	.
.	.	.	.	.	.	16ee-\JJ	.
4AA-/	.	8r	.	8r	.	16gg\LL	.
!	!	!	!	!	!	!	!LO:HP:t=cresc
.	.	.	.	.	.	16ff\	<
.	.	8e-\L	.	8fL 8c/	.	16een\	.
.	.	.	.	.	.	16ff\JJ	.
4r	.	8e-\	.	8f 8c/	.	16ee\LL	.
.	.	.	.	.	.	16ff\	.
.	.	8e-\J	.	8fJ 8c/	.	16aa-\	.
.	.	.	.	.	.	16ff\JJ	.
=38	=38	=38	=38	=38	=38	=38	=38
4BB-/	.	8r	.	8r	.	16ff\LL	.
.	.	.	.	.	.	16ee-X\	.
.	.	8e-\L	.	8gL 8B-/	.	16dd\	<
.	.	.	.	.	.	16ee-\JJ	.
4r	.	8e-\	<	8g 8B-/	.	16dd\LL	.
.	.	.	.	.	.	16ee-\	.
.	.	8e-\J	.	8gJ 8B-/	<	16gg\	.
.	.	.	.	.	.	16ee-\JJ	.
4BB-/	.	8r	.	8r	.	16ee-\LL	.
.	.	.	.	.	.	16dd\	.
.	.	8f\L	[	8a-L 8B-/	.	16cc#X\	.
.	.	.	.	.	.	16dd\JJ	.
4r	.	8f\	.	8a- 8B-/	[	16cc#\LL	.
.	.	.	.	.	.	16dd\	.
.	.	8f\J	.	8a-J 8B-/	.	16ff\	.
.	.	.	.	.	.	16dd\JJ	.
=39	=39	=39	=39	=39	=39	=39	=39
!	!	!	!	!LO:TX:t=P:problem:takt po poprawkach głównego skryptora	!	!	!
4C/	f	8r	.	8r	.	16ff\LL	.
.	.	.	.	.	.	16ee-\	.
.	.	8e-\L	f	8g/L	f	16dd\	[ f
.	.	.	.	.	.	16ee-\JJ	.
4r	.	8e-\	.	8g/	.	16dd\LL	.
.	.	.	.	.	.	16ee-\	.
.	.	8e-\J	.	8g/J	.	16gg\	.
.	.	.	.	.	.	16ee-\JJ	.
4AA-/	.	8r	.	8r	.	16gg\LL	.
.	.	.	.	.	.	16ff\	.
*	*	*tremolo	*	*	*	*	*
.	.	8e-\L	.	8fL 8c/	.	16een\	.
.	.	.	.	.	.	16ff\JJ	.
4r	.	8e-\	.	8f 8c/	.	16ee\LL	.
.	.	.	.	.	.	16ff\	.
.	.	8e-\J	.	8fJ 8c/	.	16aa-\	.
*	*	*Xtremolo	*	*	*	*	*
.	.	.	.	.	.	16ccc\JJ	.
=40	=40	=40	=40	=40	=40	=40	=40
4BB-/	.	8r	.	8r	.	16ccc\LL	.
.	.	.	.	.	.	16bb-\	.
!	!	!	!	!LO:TX:t=P:problem:poniżej 3 kropki i łuk	!	!	!
*	*	*tremolo	*	*tremolo	*	*	*
.	.	8e-\L	.	8gL 8B-/	.	16aan\	.
.	.	.	.	.	.	16bb-\JJ	.
4r	.	8e-\	.	8g 8B-/	.	16aa\LL	.
.	.	.	.	.	.	16bb-\	.
.	.	8e-\J	.	8gJ 8B-/	.	16eee-\	.
*	*	*Xtremolo	*	*Xtremolo	*	*	*
.	.	.	.	.	.	16gg\JJ	.
4BB-/	.	8r	.	8r	.	16ddd\LL	.
.	.	.	.	.	.	16ccc\	.
*	*	*tremolo	*	*tremolo	*	*	*
.	.	8f\L	.	8a-L 8B-/	.	16bb-\	.
.	.	.	.	.	.	16aa-X\JJ	.
4r	.	8f\	.	8a- 8B-/	.	16gg\LL	.
.	.	.	.	.	.	16ff\	.
.	.	8f\J	.	8a-J 8B-/	.	16bb-\	.
*	*	*Xtremolo	*	*Xtremolo	*	*	*
.	.	.	.	.	.	16dd\JJ	.
=41	=41	=41	=41	=41	=41	=41	=41
!	!	!LO:TX:t=P:problem:nad pięciolinią wykreślona dynamika f	!	!	!	!	!
4E-\	.	2g^<|\	p	4g 4B-/	.	4ee-\	.
4r	.	.	.	4r	.	4r	.
8.r	.	2e-|\	.	2r	.	2r	.
16BB-|/KL	p	.	.	.	.	.	.
8.E-|/	.	.	.	.	.	.	.
!LO:TX:t=P:problem:brak początku łuku (koniec pięciolinii)	!	!	!	!	!	!	!
(16G|/Jk	.	.	.	.	.	.	.
!!LO:LB:g=original
=42	=42	=42	=42	=42	=42	=42	=42
2A-\)	.	4d\	.	2r	.	8r	.
!	!	!	!	!	!	!	!LO:DY:t=p.
.	.	.	.	.	.	(8bb-'\L	p
.	.	4f|\	.	.	.	8bb-'\	.
.	.	.	.	.	.	8bb-'\J)	.
2F|\	.	2r	.	8r	.	(8aan\L	<
.	.	.	.	16r	.	8bb-\	.
!	!	!	!	!	!LO:DY:t=p.	!	!
.	.	.	.	16b-|\KL	p	.	.
.	.	.	.	8.ff|\	.	8ccc\	[ >
.	.	.	.	.	.	8bb-\J)	]]
.	.	.	.	(16gg\Jk	.	.	.
=43	=43	=43	=43	=43	=43	=43	=43
!	!	!	!	!	!	!LO:TX:t=P:problem:wykreślone cc	!
4D|>/	.	2r	.	2aa-\)	.	4ff\	.
4BB->|/	.	.	.	.	.	4r	.
2r	.	8r	.	2ff|\	.	2r	.
.	.	16r	.	.	.	.	.
.	.	16B-|\KL	.	.	.	.	.
.	.	8.d|\	.	.	.	.	.
.	.	(16f\Jk	.	.	.	.	.
=44	=44	=44	=44	=44	=44	=44	=44
8r	.	2g\)	.	4ee-|\	.	2r	.
(8BB-'/L	.	.	.	.	.	.	.
8BB-'/	.	.	.	4gg|\	.	.	.
8BB-'/J)	.	.	.	.	.	.	.
(8AAn/L	.	2e-|\	.	2r	.	8.r	.
8BB-/	.	.	.	.	.	.	.
.	.	.	.	.	.	16b-|\KL	.
8C/	.	.	.	.	.	8.ee-|\	.
8BB-/J	.	.	.	.	.	.	.
.	.	.	.	.	.	(16ff\Jk	.
=45	=45	=45	=45	=45	=45	=45	=45
2E-/)	.	4c|\	.	2r	.	2gg|\)	.
.	.	4C|/	.	.	.	.	.
2C|/	.	2r	.	8.r	.	[2ee-|\	.
.	.	.	.	16cc|\KL	.	.	.
.	.	.	.	8.bn|\	.	.	.
.	.	.	.	16cc|\Jk	.	.	.
=46	=46	=46	=46	=46	=46	=46	=46
2AAn|/	.	8r	.	2f/	.	4ee-\]	.
.	.	(8f'\L	.	.	.	.	.
.	.	8f'\	.	.	.	(4cc\	.
.	.	8f'\J)	.	.	.	.	.
2FF|/	.	(8en\L	<	(2an/	.	4ff\	.
.	.	8f\	.	.	.	.	.
.	.	8g\	[ >	.	.	4ee-\)	.
.	.	8f\J)	]]	.	.	.	.
=47	=47	=47	=47	=47	=47	=47	=47
(4BB-|/	.	(8f\L	.	8b-/L)	.	4dd|\	.
.	.	8d\	.	(8f/	.	.	.
4FF/	.	8B-\	.	8d/	.	(8.gg^<\L	.
.	.	8d\J)	.	8f/J	.	.	.
.	.	.	.	.	.	16ff\Jk)	.
4AAn/	.	(2c^>\	.	8e-/L	.	4cc\	.
.	.	.	.	8f/	.	.	.
4FF/)	.	.	.	8e-/	.	(8.gg^<\L	.
.	.	.	.	8f/J)	.	.	.
.	.	.	.	.	.	16ff\Jk)	.
=48	=48	=48	=48	=48	=48	=48	=48
*	*	*	*	*tremolo	*	*	*
(4BB-/	.	8B-/L)	.	(8d/L	.	8.cc#X\L	.
.	.	(8d|/	.	8f/	.	.	.
!	!	!	!	!	!	!	!LO:HP:t=cresc
.	.	.	.	.	.	16dd\Jk	<
4FF/	.	8B-/	.	8d/	.	(16gg\LL	.
.	.	.	.	.	.	16ff\	.
.	.	8d/J)	.	8f/J	.	16gg\	.
.	.	.	.	.	.	16ff\JJ)	.
4AAn/	.	(2c^>\	.	8e-/L	.	8.bn\L	.
.	.	.	.	8f/	.	.	.
.	.	.	.	.	.	16ccn\Jk	.
4FF/)	.	.	.	8e-/	.	(16gg\LL	.
.	.	.	.	.	.	16ff\	.
.	.	.	.	8f/J)	.	16gg\	.
*	*	*	*	*Xtremolo	*	*	*
.	.	.	.	.	.	16ff\JJ)	.
!!LO:LB:g=original
=49	=49	=49	=49	=49	=49	=49	=49
*	*	*tremolo	*	*tremolo	*	*	*
!	!	!LO:TX:t=P:problem:brak zakończenia łuku (początek pięciolinii)	!	!	!	!	!
!	!	!LO:TX:t=P:problem:łuk do połowy pod nutami, później - nad	!	!	!	!	!
4BB-/	.	(8B-/L)	.	(8d/L	.	8.dd|\L	<
.	.	8d/	.	8f/	.	.	.
.	.	.	.	.	.	16ff|\Jk	.
4BB-/	.	8B-/	.	8d/	.	(4bb-|^<\	.
.	.	8d/J	.	8f/J	.	.	.
4E-\	.	8e-\L	.	8g/L	.	8.aan\L	.
.	.	8g\	.	8e-/	.	.	.
.	.	.	.	.	.	16gg\Jk	.
4E-\	.	8e-\	.	8g/	.	16ff\LL	[
.	.	.	.	.	.	16ee-\	.
.	.	8g\J	.	8e-/J)	.	16dd\	.
*	*	*Xtremolo	*	*Xtremolo	*	*	*
.	.	.	.	.	.	16cc\JJ)	.
=50	=50	=50	=50	=50	=50	=50	=50
!	!	!	!	!	!LO:DY:a	!LO:TUP:a	!
4F\	.	4f\)	.	4d/	f	12b-\L	f
.	.	.	.	.	.	12dd'\	.
.	.	.	.	.	.	12ee-'\J	.
!	!	!	!	!	!	!LO:TUP:a	!
4F\	.	4f|\	.	4d 4B-|/	.	12ff'\L	.
.	.	.	.	.	.	12ee-'\	.
.	.	.	.	.	.	12dd'\J	.
!	!	!	!	!	!	!LO:TUP:a	!
4FF/	.	4r	.	4r	.	12cc'\L	.
.	.	.	.	.	.	12eee-'\	.
.	.	.	.	.	.	12ddd'\J	.
!	!	!	!	!	!	!LO:TUP:a	!
4FF/	.	4f|\	.	4e- 4c|/	.	12ccc'\L	.
.	.	.	.	.	.	12bb-'\	.
.	.	.	.	.	.	12aan'\J	.
=51	=51	=51	=51	=51	=51	=51	=51
*	*	*tremolo	*	*tremolo	*	*	*
!	!	!	!	!	!LO:DY:a	!	!
4BB-/	.	(8B-/L	.	(8d/L	p	4bb-\	.
.	.	8F/	.	8f/	.	.	.
4r	.	8B-/	.	8d/	.	4r	.
.	.	8F/J)	.	8f/J)	.	.	.
*	*	*rep	*	*rep	*	*	*
2r	.	(8B-/L	.	(8d/L	.	8.r	.
.	.	8F/	.	8f/	.	.	.
!	!	!	!	!	!	!LO:TX:b:t=dolce	!
.	.	.	.	.	.	16bb-|\KL	.
.	.	8B-/	.	8d/	.	8.aan|\	.
.	.	8F/J)	.	8f/J)	.	.	.
*	*	*Xrep	*	*Xrep	*	*	*
.	.	.	.	.	.	16bb-|\Jk	.
=52	=52	=52	=52	=52	=52	=52	=52
!	!	!	!	!	!	!LO:TX:t=P:problem:takt po poprawkach głównego skryptora	!
(2FF/	.	(8An/L	.	(8e-/L	.	8ccc|\	.
.	.	8F/	.	8f/	.	8r	.
.	.	8A/	.	8e-/	.	(2ccc^<\	.
.	.	8F/J	.	8f/J)	.	.	.
*	*	*	*	*rep	*	*	*
2AAn/	.	8c/L	.	(8e-/L	.	.	.
.	.	8F/	.	8f/	.	.	.
.	.	8c/	.	8e-/	.	16bb-X\LL)	.
.	.	.	.	.	.	16aan\	.
.	.	8F/J)	.	8f/J)	.	16gg\	.
*	*	*	*	*Xrep	*	*	*
.	.	.	.	.	.	16ff\JJ	.
=53	=53	=53	=53	=53	=53	=53	=53
16BB-/LL	.	8B-/L	.	8d/L	.	(4.fff\	>
16AAn/	.	.	.	.	.	.	.
16BB-/	.	8F/	.	8f/	.	.	.
16C/JJ	.	.	.	.	.	.	.
8D/)	.	8B-/	.	8d/	.	.	.
8r	.	8F/J	.	8f/J	.	8ddd\	.
*	*	*rep	*	*rep	*	*	*
2r	.	8B-/L	.	8d/L	.	8.bb-\L)	]
.	.	8F/	.	8f/	.	.	.
.	.	.	.	.	.	16bb-|\K	.
.	.	8B-/	.	8d/	.	8.aan|\	.
.	.	8F/J	.	8f/J	.	.	.
*	*	*Xrep	*	*Xrep	*	*	*
.	.	.	.	.	.	16bb-|\Jk	.
!!LO:PB:g=original
=54	=54	=54	=54	=54	=54	=54	=54
!	!	!	!	!LO:TX:t=P:problem:niewidoczny łuk do końca taktu	!	!LO:TX:t=P:problem:takt po poprawkach głównego skryptora	!
.	.	.	.	.	.	(8qbbn/	.
2FF|/	.	(8An/L	.	(8e-/L	.	8ccc\)	.
.	.	8F/	.	8f/	.	8r	.
.	.	8A/	.	8e-/	.	2ccc|^<\	.
.	.	8F/J	.	8f/J	.	.	.
*	*	*	*	*rep	*	*	*
2AAn|/	.	8c/L	.	8e-/L	.	.	.
.	.	8F/	.	8f/	.	.	.
!	!	!	!	!	!	!LO:SIC:v:s=16bb-	!
.	.	8c/	.	8e-/	.	(16bb\LL	.
!	!	!	!	!	!	!LO:TX:t=P:problem:♮ above	!
.	.	.	.	.	.	16aan\)	.
.	.	8F/J)	.	8f/J)	.	(16gg\	.
*	*	*	*	*Xrep	*	*	*
.	.	.	.	.	.	16ff\JJ)	.
=55	=55	=55	=55	=55	=55	=55	=55
!	!	!LO:TX:t=P:problem:niewidoczny łuk do końca taktu	!	!LO:TX:t=P:problem:niewidoczny łuk do końca taktu	!	!	!
(16BB-/LL	.	(8B-/L	.	(8d/L	.	[4fff\	.
!LO:TX:b:t=P:problem:♮ below	!	!	!	!	!	!	!
16AAn/	.	.	.	.	.	.	.
16BB-/	.	8F/	.	8f/	.	.	.
16C/JJ	.	.	.	.	.	.	.
8D/)	.	8B-/	.	8d/	.	16fff\LL]	.
.	.	.	.	.	.	(16eeen\	.
8r	.	8F/J	.	8f/J	.	16fff\	.
.	.	.	.	.	.	16ddd\JJ	.
*	*	*rep	*	*rep	*	*	*
2r	.	8B-/L	.	8d/L	.	8.bb-\L)	.
.	.	8F/	.	8f/	.	.	.
.	.	.	.	.	.	(8qccc/	.
.	.	.	.	.	.	16bb-\K)	.
.	.	8B-/	.	8d/	.	8.aan|\	.
.	.	8F/J)	.	8f/J)	.	.	.
*	*	*Xrep	*	*Xrep	*	*	*
.	.	.	.	.	.	16bb-|\Jk	.
=56	=56	=56	=56	=56	=56	=56	=56
!	!	!	!	!LO:TX:t=P:problem:niewidoczny łuk do końca taktu	!	!	!
.	.	.	.	.	.	(8qbbn/	.
2FF/	.	(8An/L	.	(8e-/L	.	8ccc|\)	.
.	.	8F/	.	8f/	.	8r	.
.	.	8A/	.	8e-/	.	[4ccc|^<\	.
.	.	8F/J	.	8f/J	.	.	.
*	*	*	*	*rep	*	*	*
2AAn/	.	8c/L	.	8e-/L	.	8ccc\L]	.
.	.	8F/	.	8f/	.	(16ddd\L	.
.	.	.	.	.	.	16ccc\JJ	.
!	!	!	!	!	!	!LO:SIC:v:s=16bb-	!
.	.	8c/	.	8e-/	.	16bb\LL	.
!	!	!	!	!	!	!LO:SIC:v:s=16aan	!
.	.	.	.	.	.	16aa-\	.
.	.	8F/J)	.	8f/J)	.	16gg\	.
*	*	*	*	*Xrep	*	*	*
.	.	.	.	.	.	16ff\JJ)	.
=57	=57	=57	=57	=57	=57	=57	=57
!LO:TX:t=P:problem:mixed beam	!	!	!	!	!	!	!
!	!	!LO:TX:t=P:problem:łuk poniżej	!	!LO:TX:t=P:problem:pod główkami nut 8 kropek i łuk	!	!	!
8BB-/L	.	(8B-/L	.	(8d/L	.	4bb-\	.
(8B-'\	<	8B-/	.	8d/	.	.	.
8B-'\	.	8B-/	.	8d/	.	4r	.
8B-'\J	.	8B-/J	.	8d/J	.	.	.
8B-'\L)	.	8B-/L	.	8d/L	.	2r	.
(8B-\	.	8B-/	.	8d/	.	.	.
!LO:TX:t=P:problem:♮ above	!	!	!	!	!	!	!
8An\	.	8B-/	.	8d/	.	.	.
8G\J	[[	8B-/J)	.	8d/J)	.	.	.
*	*	*Xtremolo	*	*	*	*	*
=58	=58	=58	=58	=58	=58	=58	=58
!	!	!LO:TX:t=P:problem:łuk powyżej	!	!	!	!	!
!	!	!LO:TX:t=P:problem:mixed beam	!	!	!	!	!
8F#X\L)	.	8An/L	mf	8ccL 8d/	.	2ddd\	mf
8D|\	.	(8an\	.	8cc 8d/	.	.	.
8F#|\	.	8a\	.	8cc 8d/	.	.	.
8D|\J	.	8a\J	.	8ccJ 8d/	.	.	.
*rep	*	*tremolo	*	*	*	*	*
8F#\L	.	8a\L	.	8ccL 8d/	.	2aan\	.
8D|\	.	8a\	.	8cc 8d/	.	.	.
8F#|\	.	8a\	.	8cc 8d/	.	.	.
8D|\J	.	8a\J)	.	8ccJ 8d/	.	.	.
*Xrep	*	*	*	*	*	*	*
!!LO:LB:g=original
=59	=59	=59	=59	=59	=59	=59	=59
!	!	!	!	!LO:TX:t=P:problem:takt po poprawkach głównego skryptora	!	!	!
16G\LL	.	8g\L	.	8b-L 8d/	.	(16bb-\LL	.
16F#X\	.	.	.	.	.	16ccc\	.
16G\	.	8g\	.	8b- 8d/	.	16bb-\	.
!LO:TX:t=P:problem:♮ above	!	!	!	!	!	!	!
16An\JJ	.	.	.	.	.	16aan\JJ	.
8B-\	.	8g\	.	8b- 8d/	.	8gg\)	.
8r	.	8g\J	.	8b-J 8d/	.	8r	.
*	*	*Xtremolo	*	*Xtremolo	*	*	*
!LO:TX:t=P:problem:brak 8r	!	!	!	!	!	!	!
8ryy	.	(16g\LL	.	(16b-LL 16d/	.	8r	.
.	.	16an\	.	16cc/	.	.	.
(8G'\L	.	16g\	.	16b- 16d/	.	(8bb-'\L	.
.	.	16f#X\JJ	.	16an/JJ	.	.	.
8G'\	.	8g\L)	.	8b-L 8d/)	.	8bb-'\	.
8G'\J)	.	8g'\J	.	8b-J 8d'/	.	8bb-'\J)	.
=60	=60	=60	=60	=60	=60	=60	=60
*tremolo	*	*tremolo	*	*tremolo	*	*	*
8F#X'\L	.	8an\L	.	8ccL 8d/	.	2aan\	.
8D\	.	8a\	.	8cc 8d/	.	.	.
8F#'\	.	8a\	.	8cc 8d/	.	.	.
8D'\J	.	8a\J	.	8ccJ 8d/	.	.	.
!	!	!	!	!LO:SIC:v:n=1:s=2an	!	!	!
*rep	*	*	*	*	*	*	*
8F#'\L	.	8a\L	.	8a-L 8d/	.	4.ddd\	.
8D'\	.	8a\	.	8a- 8d/	.	.	.
8F#'\	.	8a\	.	8a- 8d/	.	.	.
8D'\J	.	8a\J	.	8a-J 8d/	.	8ccc\	.
*Xrep	*	*	*	*	*	*	*
*Xtremolo	*	*	*	*	*	*	*
=61	=61	=61	=61	=61	=61	=61	=61
(16G\LL	.	8g\L	.	8b-L 8d/	.	(16bb-\LL	.
16F#X\	.	.	.	.	.	16aan\	.
16G\	.	8g\	.	8b- 8d/	.	16bb-\	.
16An\JJ	.	.	.	.	.	16ccc\JJ	.
8B-\)	.	8g\	.	8b- 8d/	.	8ddd\)	.
8r	.	8g\J	.	8b-J 8d/	.	8r	.
*	*	*Xtremolo	*	*Xtremolo	*	*	*
8r	.	(16g\LL	.	(16b-/LL	.	8r	.
.	.	16f#X\	.	16an/	.	.	.
8G'\L	.	16gn\	.	16b-/	.	8ddd'\L	.
!	!	!LO:TX:t=P:problem:♮ above	!	!	!	!	!
.	.	16an\JJ	.	16cc/JJ	.	.	.
8G'\	.	8g\L)	.	8b-/L)	.	8ddd'\	.
(8Fn^<\J	.	8g|^<\J	.	8b-^</J	.	(8ddd^<\J	.
=62	=62	=62	=62	=62	=62	=62	=62
8E-\)	f	(16g\LL	f	8b-\	f	8ccc#X\)	f
.	.	16f#X\	.	.	.	.	.
4E-\	.	16g\	.	4gg\	.	8r	.
!	!	!LO:TX:t=P:problem:♮ above	!	!	!	!	!
.	.	16an\JJ	.	.	.	.	.
.	.	8b-\)	.	.	.	2ggg|^<\	.
4E-\	.	8r	.	4gg\	.	.	.
.	.	(16g\LL	.	.	.	.	.
.	.	16f#\	.	.	.	.	.
4E-\	.	16g\	.	4gg\	.	.	.
.	.	16a\JJ	.	.	.	.	.
.	.	8b-\)	.	.	.	(4ccc#\	.
[8E-\	.	8r	.	[8gg\	.	.	.
=63	=63	=63	=63	=63	=63	=63	=63
8E-\]	.	(16g\LL	.	8gg\]	.	8ggg\)	.
.	.	16f#X\)	.	.	.	.	.
4E-\	.	16g|\	.	4gg\	.	8r	.
.	.	16an|\JJ	.	.	.	.	.
.	.	(16b-\LL	.	.	.	(4ccc#X^<\	.
.	.	16a\)	.	.	.	.	.
4E-\	.	16b-|\	.	4gg\	.	.	.
.	.	16a|\JJ	.	.	.	.	.
.	.	(16g\LL	.	.	.	8ggg\)	.
.	.	16f#\)	.	.	.	.	.
4E-\	.	16g|\	.	4gg\	.	8r	.
.	.	16a|\JJ	.	.	.	.	.
.	.	(16b-\LL	.	.	.	(4ccc#\	.
.	.	16a\)	.	.	.	.	.
!LO:TX:t=P:problem:brak początku łuku (koniec pięciolinii)	!	!	!	!	!	!	!
(8E-\	.	16b-'\	.	(8gg\	.	.	.
.	.	16g'\JJ	.	.	.	.	.
!!LO:LB:g=original
=64	=64	=64	=64	=64	=64	=64	=64
*	*	*	*	*	*	*Xtuplet	*
4D/)	.	4an\	.	4ff#X\)	.	12ddd\L)	.
.	.	.	.	.	.	12ff#X'\	.
.	.	.	.	.	.	12aan'\J	.
4DD/	.	4a 4d\	.	4ff# 4an 4d\	.	(12ccc#X^<\L	.
.	.	.	.	.	.	12ddd\)	.
.	.	.	.	.	.	12cccn'\J	.
4D/	.	4b- 4d\	.	4gg 4b- 4d\	.	12bb-'\L	.
.	.	.	.	.	.	12ddd'\	.
.	.	.	.	.	.	12ccc'\J	.
4DD/	.	4b- 4d\	.	4gg 4b- 4d\	.	12bb-'\L	.
.	.	.	.	.	.	12aa'\	.
.	.	.	.	.	.	12gg'\J	.
=65	=65	=65	=65	=65	=65	=65	=65
4D/	.	4an 4d\	.	4ff#X 4an 4d\	.	12ff#X'\L	.
.	.	.	.	.	.	12ff#'\	.
.	.	.	.	.	.	12aan'\J	.
4DD/	.	4a 4d\	.	4ff# 4a 4d\	.	(12ccc#X^<\L	.
.	.	.	.	.	.	12ddd\)	.
.	.	.	.	.	.	12cccn'\J	.
4D/	.	4b- 4d\	.	4gg 4b- 4d\	.	12bb-'\L	.
.	.	.	.	.	.	12ddd'\	.
.	.	.	.	.	.	12ccc'\J	.
4DD/	.	4b- 4d\	.	4gg 4b- 4d\	.	12bb-\L	.
.	.	.	.	.	.	12aa\	.
.	.	.	.	.	.	12gg\J	.
=66	=66	=66	=66	=66	=66	=66	=66
4D/	.	4an 4d\	.	4ff#X 4an 4d\	.	12ff#X'\L	.
.	.	.	.	.	.	(12ddd^<\	.
.	.	.	.	.	.	12ccc#X\J	.
4r	.	4r	.	4r	.	12ddd\L)	.
.	.	.	.	.	.	12aan'\	.
.	.	.	.	.	.	12ff#'\J	.
*Xtuplet	*	*Xtuplet	*	*Xtuplet	*	*	*
!	!	!	!LO:DY:a	!	!	!	!
12D'\L	ff	12d'\L	ff	12dd'\L	.	12dd'\L	ff
(12d\	.	(12dd\	.	(12ddd\	.	(12ddd^<\	.
12c#X\J	.	12cc#X\J	.	12ccc#X\J	.	12ccc#\J	.
12d\L)	.	12dd\L)	.	12ddd\L)	.	12ddd\L)	.
12An'\	.	12an'\	.	12aan'\	.	12aa'\	.
!	!	!LO:TX:t=P:problem:# above	!	!	!	!LO:TX:t=P:problem:wykreślony takt	!
12F#X'\J	.	12f#X'\J	.	12ff#'\J	.	12ff#'\J	.
=67	=67	=67	=67	=67	=67	=67	=67
*tremolo	*	*tremolo	*	*	*	*	*
!LO:TX:t=P:problem:takt po poprawkach głównego skryptora	!	!LO:TX:t=P:problem:takt po poprawkach głównego skryptora	!	!LO:TX:t=P:problem:takt po poprawkach głównego skryptora	!	!	!
8Dn/L	.	8d\L	.	2r	.	2dd|^<\	p
8D/	.	8d\	.	.	.	.	.
8D/	.	8d\	.	.	.	.	.
8D/J	.	8d\J	.	.	.	.	.
8Cn/L	.	8d\L	.	(16dd\LL	p	2ff#X|\	.
.	.	.	.	16cc#X\	.	.	.
8C/	.	8d\	.	16dd\	.	.	.
.	.	.	.	16ee-\JJ	.	.	.
8C/	.	8d\	.	8dd\)	.	.	.
8C/J	.	8d\J	.	8r	.	.	.
!!LO:PB:g=original
=68	=68	=68	=68	=68	=68	=68	=68
!	!	!LO:TX:t=P:problem:t. 68-72 po poprawkach głównego skryptora	!	!LO:TX:t=P:problem:t. 68-72 po poprawkach głównego skryptora	!	!	!
8BB-/L	.	8d\L	.	2r	.	(16gg\LL	.
.	.	.	.	.	.	16ff#X\	.
8BB-/	.	8d\	.	.	.	16gg\	.
.	.	.	.	.	.	16aan\JJ	.
8BB-/	.	8d\	.	.	.	8bb-\)	.
8BB-/	.	8d\J	.	.	.	8r	.
8BB-/	.	8d\L	.	(16g/LL	p	2r	.
.	.	.	.	16f#X/	.	.	.
8BB-/	.	8d\	.	16g/	.	.	.
!	!	!	!	!LO:SIC:v:s=16an	!	!	!
.	.	.	.	16a-/JJ	.	.	.
8BB-/	.	8d\	.	8b-/)	.	.	.
8BB-/J	.	8d\J	.	8r	.	.	.
=69	=69	=69	=69	=69	=69	=69	=69
*	*	*	*	*tremolo	*	*	*
8BB-/L	.	8c^<\L	.	8g/L	.	2cc 2en^<\	.
8BB-/	.	8c\	.	8g/	.	.	.
8BB-/	.	8c\	.	8g/	.	.	.
8BB-/	.	8c\J	.	8g/	.	.	.
8BB-/	.	8c\L	.	8g/	.	2een\	.
8BB-/	.	8c\	.	8g/	.	.	.
8BB-/	.	8c\	.	8g/	.	.	.
8BB-/J	.	8c\J	.	8g/J	.	.	.
=70	=70	=70	=70	=70	=70	=70	=70
8AAn/L	.	8c\L	.	8f/L	.	(16ff\LL	<
.	.	.	.	.	.	16een\	.
8AA/	.	8c\	.	8f/	.	16ff\	.
.	.	.	.	.	.	16gg\JJ	.
8AA/	.	8c\	.	8f/	.	8aan\)	.
8AA/J	.	8c\J	.	8f/J	.	8r	.
*Xtremolo	*	*Xtremolo	*	*Xtremolo	*	*	*
!	!LO:HP:a	!LO:TX:t=P:problem:łuk	!	!	!	!	!
(2AA/	>]	((>2c 2F^<\	.	(>16cc/LL	.	(16aa\LL	.
.	.	.	.	16bn/	.	16gg#X\	.
.	.	.	.	16cc/	.	16aa\	.
.	.	.	.	16dd/JJ	.	16bb-\JJ	.
.	.	.	.	8ee-/)	.	8ccc\)	.
.	.	.	.	8r	.	8r	[[
=71	=71	=71	=71	=71	=71	=71	=71
!	!	!	!	!	!	!LO:TX:t=P:problem:t. 71-72 po poprawkach głównego skryptora	!
8BB-/)	.	8d 8F\))	.	(16dd\LL	.	(16bb-\LL	.
!	!	!	!	!	!	!LO:TX:t=P:problem:♮ above	!
.	.	.	.	16cc#X\	.	16aan\	.
8r	.	8r	.	16dd\	.	16bb-\	.
.	.	.	.	16ee-\JJ	.	16ccc\JJ	.
4r	.	4r	.	8ff\)	.	8ddd\)	.
.	.	.	.	8r	.	8r	.
!	!LO:HP:a	!	!	!	!	!	!
2E-\	>]	2G^</	.	16ff\LL	.	16ddd\LL	f
.	.	.	.	16ee-\	.	16ccc\	.
.	.	.	.	16dd\	.	16bbn\	.
.	.	.	.	16ee-\JJ	.	16ccc\JJ	.
.	.	.	.	16dd\LL	.	16bb\LL	.
.	.	.	.	16ee-\	.	16ccc\	.
.	.	.	.	16gg\	.	16gg\	.
.	.	.	.	16ee-\JJ	.	16ccc\JJ	.
=72	=72	=72	=72	=72	=72	=72	=72
!	!	!LO:TX:t=P:problem:łuk	!	!	!	!	!
(>8F\	f	(>8B-/	f	8dd\	f	16bb-\LL	.
.	.	.	.	.	.	16ddd\	.
!LO:TX:t=P:problem:kreska taktowa	!	!	!	!	!	!	!
8r	.	8r	.	8r	.	16bb-\	.
.	.	.	.	.	.	16ff\JJ	.
4r	.	4B-/)	.	4dd 4f 4B-/	.	16dd\LL	.
.	.	.	.	.	.	16ff\	.
.	.	.	.	.	.	16dd\	.
.	.	.	.	.	.	16b-\JJ	.
4FF/)	.	4r	.	4r	.	16an\LL	.
.	.	.	.	.	.	16b-\	.
.	.	.	.	.	.	16cc\	.
.	.	.	.	.	.	16dd\JJ	.
4r	.	4c/	.	4ee- 4f 4An/	.	16ee-\LL	.
.	.	.	.	.	.	16ff\	.
.	.	.	.	.	.	16gg\	.
.	.	.	.	.	.	16aan\JJ	.
!!LO:LB:g=original
=73	=73	=73	=73	=73	=73	=73	=73
!	!	!LO:TX:t=P:problem:takt po poprawkach głównego skryptora	!	!	!	!LO:TX:t=P:problem:wykreślony takt	!
4BB-/	.	(16B-/LL	.	(16d/LL	.	4bb-\	.
.	.	16An/	.	16c/	.	.	.
.	.	16B-/	.	16d/	.	.	.
.	.	16c/JJ	.	16e-/JJ	.	.	.
4r	.	8B-/L)	p	8d/L)	p	4r	.
.	.	8F'/J	.	8f'/J	.	.	.
*	*	*tremolo	*	*tremolo	*	*	*
2r	.	8B-'/L	.	8d'/L	.	8.r	.
.	.	8F'/	.	8f'/	.	.	.
.	.	.	.	.	.	16ff\KL	.
.	.	8B-'/	.	8d'/	.	8.gg\	.
.	.	8F'/J	.	8f'/J	.	.	.
*	*	*Xtremolo	*	*Xtremolo	*	*	*
.	.	.	.	.	.	16ff\Jk	.
=74	=74	=74	=74	=74	=74	=74	=74
2r	.	(16c/LL	.	(16e-/LL	.	4ee-X\	.
.	.	16Bn/	.	16d/	.	.	.
.	.	16c/	.	16e-/	.	.	.
.	.	16d/JJ	.	16f/JJ	.	.	.
.	.	8c/L)	.	8e-/L)	.	4ccc^<\	.
.	.	8F'/J	.	8f'/J	.	.	.
*	*	*	*	*tremolo	*	*	*
8.r	.	8An'/L	.	8e-'/L	.	2r	.
.	.	8F'/	.	8f'/	.	.	.
16C|/KL	.	.	.	.	.	.	.
!	!	!	!	!	!LO:HP:t=cresc	!	!
8.AAn|/	.	8c'/	.	8e-'/	<	.	.
.	.	8F'/J	.	8f'/J	.	.	.
*	*	*	*	*Xtremolo	*	*	*
16FF|/Jk	.	.	.	.	.	.	.
=75	=75	=75	=75	=75	=75	=75	=75
4BB-|/	.	(16B-/LL	.	(16d/LL	.	2r	.
.	.	16An/	.	16c/	.	.	.
.	.	16B-/	.	16d/	.	.	.
.	.	16c/JJ	.	16e-/JJ	.	.	.
4D|^>/	.	8B-/L)	.	8d/L)	.	.	.
.	.	8F'/J	.	8f'/J	.	.	.
*	*	*tremolo	*	*tremolo	*	*	*
2r	.	8B-'/L	.	8d'/L	.	8.r	.
.	.	8F'/	.	8f'/	.	.	.
.	.	.	.	.	.	16ff\KL	.
.	.	8B-'/	.	8d'/	.	8.gg\	.
.	.	8F'/J	.	8f'/J	.	.	.
*	*	*Xtremolo	*	*Xtremolo	*	*	*
.	.	.	.	.	.	16ff\Jk	.
=76	=76	=76	=76	=76	=76	=76	=76
2r	.	(16c/LL	.	(16e-/LL	.	4ee-\	.
.	.	16Bn/	.	16d/	.	.	.
.	.	16c/	.	16e-/	.	.	.
.	.	16d/JJ	.	16f/JJ	.	.	.
.	.	8c/L)	.	8e-/L)	.	(16bbn^<\KL	.
.	.	.	.	.	.	8.ccc\J)	.
.	.	8F'/J	.	8f'/J	.	.	.
*	*	*	*	*tremolo	*	*	*
8.r	.	8An'/L	.	8e-'/L	.	2r	.
.	.	8F'/	.	8f'/	.	.	.
16C|/KL	.	.	.	.	.	.	.
8.AAn|/	.	8c'/	.	8e-'/	.	.	.
.	.	8F'/J	.	8f'/J	.	.	.
*	*	*	*	*Xtremolo	*	*	*
16FF|/Jk	.	.	.	.	.	.	.
!!LO:LB:g=original
=77	=77	=77	=77	=77	=77	=77	=77
4BB-/	.	(16B-/LL	.	(16d/LL	.	8.r	.
.	.	16An/	.	16c/	.	.	.
.	.	16B-/	.	16d/	.	.	.
.	.	16c/JJ	.	16e-/JJ	.	16ff\KL	.
4r	.	8B-/L)	.	8d/L)	.	8.gg\	.
.	.	8F'/J	.	8f'/J	.	.	.
.	.	.	.	.	.	16ff\Jk	.
8.r	.	(16c/LL	.	(16e-/LL	.	4ee-\	.
.	.	16Bn/	.	16d/	.	.	.
.	.	16c/	.	16e-/	.	.	.
16C|/KL	.	16d/JJ	.	16f/JJ	.	.	.
8.AAn|/	.	8c/L)	.	8e-/L)	.	4r	.
.	.	8F'/J	.	8f'/J	.	.	.
16FF|/Jk	.	.	.	.	.	.	.
=78	=78	=78	=78	=78	=78	=78	=78
4BB-/	.	(16B-/LL	.	(16d-X/LL	.	8.r	.
.	.	16An/	.	16c/	.	.	.
.	.	16B-/	.	16d-/	.	.	.
.	.	16c/JJ	.	16e-/JJ	.	16ff\KL	.
4r	.	8B-/L)	.	8d-/L)	.	8.gg-X\	.
.	.	8F'/J	.	8f'/J	.	.	.
.	.	.	.	.	.	16ff\Jk	.
8.r	.	(16c/LL	.	(16e-/LL	.	4ee-\	.
!	!	!LO:TX:t=P:problem:♮ below	!	!LO:TX:t=P:problem:♮ below	!	!	!
.	.	16Bn/	.	16dn/	.	.	.
.	.	16c/	.	16e-/	.	.	.
!	!	!LO:TX:t=P:problem:♭ below	!	!	!	!	!
16C|/KL	.	16d-X/JJ	.	16f/JJ	.	.	.
8.AAn|/	.	8c/L)	.	8e-/L)	.	4r	.
.	.	8F/J	.	8f'/J	.	.	.
16FF|/Jk	.	.	.	.	.	.	.
=79	=79	=79	=79	=79	=79	=79	=79
*tremolo	*	*tremolo	*	*tremolo	*	*	*
!LO:TX:t=P:problem:takt po poprawkach głównego skryptora	!	!	!	!LO:TX:t=P:problem:t. 79-80 po poprawkach głównego skryptora	!	!	!
16GG-X/LL	f	16B-/LL	f	16d-X/LL	f	16b-'\LL	f
16GG-/	.	16B-/	.	16d-/	.	16b-'\	.
16GG-/	.	16B-/	.	16d-/	.	16cc'\	.
16GG-/	.	16B-/	.	16d-/	.	16dd-X'\JJ	<
16GG-/	.	16B-/	.	16d-/	.	16ee-'\LL	.
16GG-/	.	16B-/	.	16d-/	.	16ff'\	.
!	!	!	!	!	!	!LO:TX:t=P:problem:♭ above	!
16GG-/	.	16B-/	.	16d-/	.	16gg-X'\	.
16GG-/	.	16B-/	.	16d-/	.	16aa-X'\JJ	.
16GG-/	.	16B-/	.	16d-/	.	16bb-'\LL	.
16GG-/	.	16B-/	.	16d-/	.	16b-'\	.
16GG-/	.	16B-/	.	16d-/	.	16cc'\	.
16GG-/	.	16B-/	.	16d-/	.	16dd-'\JJ	.
16GG-/	.	16B-/	.	16d-/	.	16ee-'\LL	.
16GG-/	.	16B-/	.	16d-/	.	16ff'\	.
16GG-/	.	16B-/	.	16d-/	.	16gg-'\	.
16GG-/JJ	.	16B-/JJ	.	16d-/JJ	.	16aa-'\JJ	.
=80	=80	=80	=80	=80	=80	=80	=80
!	!	!	!	!	!	!LO:TX:t=P:problem:t. 80-81 po poprawkach głównego skryptora	!
16GG-X/LL	.	16B-/LL	.	16d-X/LL	.	(16bb-\LL	.
16GG-/	.	16B-/	.	16d-/	.	16aan\)	.
16GG-/	.	16B-/	.	16d-/	.	16bb-'\	[ ff
16GG-/	.	16B-/	.	16d-/	.	16ccc'\JJ	.
16GG-/	.	16B-/	.	16d-/	.	(16ddd-X\LL	.
16GG-/	.	16B-/	.	16d-/	.	16ccc\	.
16GG-/	.	16B-/	.	16d-/	.	16ddd-\	.
16GG-/JJ	.	16B-/	.	16d-/JJ	.	16ccc\JJ)	.
16G-X\LL	.	16B-/	.	16enLL 16d-/	.	(16bb-\LL	.
16G-\	.	16B-/	.	16e 16d-/	.	16aa\)	.
16G-\	.	16B-/	.	16e 16d-/	.	16bb-'\	.
16G-\	.	16B-/	.	16e 16d-/	.	16ccc'\JJ	.
16G-\	.	16B-/	.	16e 16d-/	.	(16ddd-\LL	.
16G-\	.	16B-/	.	16e 16d-/	.	16ccc\	.
16G-\	.	16B-/	.	16e 16d-/	.	16ddd-\	.
16G-\JJ	.	16B-/JJ	.	16eJJ 16d-/	.	16eeen\JJ)	.
*Xtremolo	*	*Xtremolo	*	*Xtremolo	*	*	*
!!LO:LB:g=original
=81	=81	=81	=81	=81	=81	=81	=81
4F\	.	4B-/	.	4f 4dn/	.	8fff/L	.
.	.	.	.	.	.	16eee-'>/L	.
.	.	.	.	.	.	16ddd'>/JJ	.
4r	.	4B-/	.	4f 4d/	.	16ccc'>/LL	.
.	.	.	.	.	.	16bb-'>/	.
!	!	!	!	!	!	!LO:SIC:v:s=16aan	!
.	.	.	.	.	.	16aa-'>/	.
.	.	.	.	.	.	16gg'>/JJ	.
4FF/	.	4r	.	4r	.	4ff/	.
4r	.	(4c/	.	4ee- 4f 4An/	.	4aan 4cc 4f/	.
=82	=82	=82	=82	=82	=82	=82	=82
!LO:TX:t=P:problem:t. 82-83 po poprawkach głównego skryptora	!	!	!	!	!	!	!
!LO:TX:t=P:problem:mixed beam	!	!LO:TX:t=P:problem:mixed beam	!	!	!	!LO:TX:t=P:problem:takt po poprawkach głównego skryptora	!
8.BB-/L	.	8.B-/L)	.	4dd 4f 4B-/	.	4bb- 4dd 4f\	.
16B-|\K	.	16b-|\K	.	.	.	.	.
8.F|\	.	8.f|\	.	4dd 4f 4B-/	.	4bb- 4dd 4f\	.
16D|\Jk	.	16d|\Jk	.	.	.	.	.
!	!	!	!	!	!	!LO:TX:t=P:problem:podwójna kreska taktowa, łamanie strony	!
8.BB-|>/	.	8.B-|>/	.	8.dd 8.f 8.B-/	.	8.bb- 8.dd 8.f\	.
=||	=	=||	=	=||	=	=||	=
!!LO:PB:g=original
!	!	!	!	!LO:TX:a:t=risoluto	!	!	!
!	!LO:DY:a	!	!	!	!LO:DY:a	!	!
16FF\KL	f	16r	.	16f|/KL	f	16r	.
8.BB-\	.	4r	.	8.b-|/	.	4r	.
16C\Jk	.	.	.	(16cc/Jk	.	.	.
=83	=83	=83	=83	=83	=83	=83	=83
2D-X\	.	2r	.	2dd-X|\)	.	2r	.
2F\	.	8.r	.	2ff|\	.	8.r	.
!	!	!	!	!	!	!	!LO:DY:a
.	.	16F/KL	.	.	.	16f|/KL	f
.	.	8.B-/	.	.	.	8.b-|/	.
.	.	16c/Jk	.	.	.	(16cc/Jk	.
=84	=84	=84	=84	=84	=84	=84	=84
2BB-/	.	2d-X\	.	2b-|\	.	2dd-X\)	.
2r	.	2f\	.	2r	.	2ff|\	.
=85	=85	=85	=85	=85	=85	=85	=85
*tremolo	*	*	*	*tremolo	*	*	*
!	!LO:DY:a	!	!	!	!	!	!
8BB-/L	p	2B-/	.	8fL 8d-X/	p	2b-|\	.
8BB-/	.	.	.	8f 8d-/	.	.	.
8BB-/	.	.	.	8f 8d-/	.	.	.
8BB-/J	.	.	.	8fJ 8d-/	.	.	.
8BB-/L	.	8.r	.	8fL 8d-/	.	8.r	.
8BB-/	.	.	.	8f 8d-/	.	.	.
.	.	16B-|/KL	p	.	.	16b-|\KL	p
8BB-/	.	8.An|/	.	8f 8d-/	.	8.an|\	.
8BB-/J	.	.	.	8fJ 8d-/	.	.	.
.	.	(<16B-|/Jk	.	.	.	16b-|\Jk	.
=86	=86	=86	=86	=86	=86	=86	=86
8AAn/L	.	(2c\)	.	8fL 8e-/	.	(2cc\	.
8AA/	.	.	.	8f 8e-/	.	.	.
8AA/	.	.	.	8f 8e-/	.	.	.
8AA/J	.	.	.	8fJ 8e-/	.	.	.
*Xtremolo	*	*	*	*	*	*	*
8AA/L	.	4.f\	.	8fL 8c/	.	4.ff\)	.
8FF/	.	.	.	8f 8c/	.	.	.
8GG/	.	.	.	8f 8c/	.	.	.
8AA/J	.	8e-\)	.	8fJ 8c/	.	8ee-|\	.
=87	=87	=87	=87	=87	=87	=87	=87
!	!	!	!	!LO:TX:t=P:problem:t. 87-88 po poprawkach głównego skryptora	!	!	!
(16BB-/LL	.	(16d-X\LL	.	8fL 8d-X/	.	(16dd-X\LL	.
16AAn/	.	16e-\	.	.	.	16ee-\	.
16BB-/	.	16d-\	.	8f 8d-/	.	16dd-\	.
16C/JJ	.	16c\JJ	.	.	.	16cc\JJ	.
!LO:SIC:v:s=8D-	!	!	!	!	!	!	!
8D\)	.	8B-\)	.	8f 8d-/	.	4b-\)	.
8B-\	.	8r	.	8fJ 8d-/	.	.	.
*	*	*	*	*Xtremolo	*	*	*
4BB-/	.	8.r	.	4f 4d-\	.	8.r	.
.	.	16F/KL	.	.	.	16f|/KL	f
4r	.	8.B-/	.	4r	.	8.b-|/	.
.	.	16c/Jk	.	.	.	(16cc/Jk	.
=88	=88	=88	=88	=88	=88	=88	=88
2r	.	2d-X\	.	2r	.	2dd-X\)	.
!LO:TX:t=P:problem:rytm 8	!	!	!	!	!	!	!
8.r	.	2f\	.	8.r	.	2ff|\	.
16FF/KL	.	.	.	16f|/KL	f	.	.
8.BB-/	.	.	.	8.b-|/	.	.	.
!	!	!	!	!LO:SIC:v:s=16dd-	!	!	!
16D-X/Jk	.	.	.	(16dd/Jk	.	.	.
=89	=89	=89	=89	=89	=89	=89	=89
!	!	!	!	!	!	!LO:TX:b:t=dolce	!
[2AA-X/	.	[2c\	.	(8ee-\L)	p	(2ee-\	p
.	.	.	.	8e-'/	.	.	.
.	.	.	.	8e-'/	.	.	.
.	.	.	.	8e-'/J)	.	.	.
*	*	*	*	*tremolo	*	*	*
8AA-/L]	.	8c\L]	.	8e-/L	.	4.aa-\	.
8AA-/	.	(8c'\	.	8e-/	.	.	.
8AA-/	.	8c'\	.	8e-/	.	.	.
8AA-/J	.	8c'\J)	.	8e-/J	.	8gg-X\)	.
!!LO:LB:g=original
=90	=90	=90	=90	=90	=90	=90	=90
*	*	*tremolo	*	*	*	*	*
!	!	!	!	!	!	!LO:TX:t=P:problem:takt po poprawkach głównego skryptora	!
(16D-X\LL	.	8d-X\L	.	8fL 8A-X/	.	(16ff\LL	.
16C\	.	.	.	.	.	16gg-X\	.
16D-\	.	8d-\	.	8f 8A-/	.	16ff\	.
16E-\JJ	.	.	.	.	.	16ee-\JJ	.
8F\)	.	8d-\	.	8f 8A-/	.	8dd-X\)	.
8r	.	8d-\J	.	8fJ 8A-/	.	8r	.
*	*	*Xtremolo	*	*	*	*	*
8AA-/	.	8c\L	.	8g-XL 8A-/	.	(16ee-\LL	.
.	.	.	.	.	.	16ff\	.
8r	.	8c\	.	8g- 8A-/	.	16ee-\	.
.	.	.	.	.	.	16dd-\JJ	.
8AA-/	.	8e-\	.	8g- 8A-/	.	4cc\)	.
8r	.	8e-\J	.	8g-J 8A-/	.	.	.
=91	=91	=91	=91	=91	=91	=91	=91
*	*	*tremolo	*	*	*	*	*
!	!	!LO:TX:t=P:problem:łuk powyżej	!	!	!	!	!
4D-X\	.	(8d-X\L	.	(8f/L	p	4dd-X\	.
.	.	8A-\	.	8a-/	.	.	.
4r	.	8d-\	.	8f/	.	4r	.
.	.	8A-\J	.	8a-/J)	.	.	.
*	*	*rep	*	*rep	*	*	*
2r	.	8d-\L	.	(8f/L	.	8.r	.
.	.	8A-\	.	8a-/	.	.	.
.	.	.	.	.	.	16dd-\KL	.
.	.	8d-\	.	8f/	.	8.cc\	.
.	.	8A-\J)	.	8a-/J)	.	.	.
*	*	*Xrep	*	*Xrep	*	*	*
.	.	.	.	.	.	16dd-\Jk	.
=92	=92	=92	=92	=92	=92	=92	=92
!	!LO:DY:a	!LO:TX:t=P:problem:łuk poniżej	!	!	!	!LO:TX:t=P:problem:t. 92-94 po poprawkach głównego skryptora	!
2AA-/	p	(8c/L	.	(8g-X/L	.	8ee-\	.
.	.	8A-/	.	8a-/	.	8r	.
.	.	8c/	.	8g-/	.	2ee-|^<\	.
.	.	8A-/J	.	8a-/J)	.	.	.
*	*	*rep	*	*rep	*	*	*
2C/	.	8c/L	.	(8g-/L	.	.	.
.	.	8A-/	.	8a-/	.	.	.
.	.	8c/	.	8g-/	.	(16dd-X\LL	.
.	.	.	.	.	.	16cc\	.
.	.	8A-/J)	.	8a-/J)	.	16b-\	.
*	*	*Xrep	*	*Xrep	*	*	*
.	.	.	.	.	.	16a-\JJ)	.
=93	=93	=93	=93	=93	=93	=93	=93
(16D-X/LL	.	8d-X/L	.	(8f/L	.	(4.aa-\	.
16C/	.	.	.	.	.	.	.
16D-/	.	8A-/	.	8a-/	.	.	.
16E-/JJ	.	.	.	.	.	.	.
8F\)	.	8d-/	.	8f/	.	.	.
8r	.	8A-/J	.	8a-/J)	.	8ff\)	.
*	*	*rep	*	*rep	*	*	*
2r	.	8d-/L	.	(8f/L	.	8.dd-X\L	.
.	.	8A-/	.	8a-/	.	.	.
.	.	.	.	.	.	16dd-\K	.
.	.	8d-/	.	8f/	.	8.cc\	.
.	.	8A-/J	.	8a-/J)	.	.	.
*	*	*Xrep	*	*Xrep	*	*	*
.	.	.	.	.	.	16dd-\Jk	.
=94	=94	=94	=94	=94	=94	=94	=94
.	.	.	.	.	.	(8qddn/	.
2AA-/	.	(8c/L	.	8g-X/L	.	8ee-\)	.
.	.	8A-/	.	8a-/	.	8r	.
.	.	8c/	.	8g-/	.	2ee-|^<\	.
.	.	8A-/J	.	8a-/J	.	.	.
*	*	*rep	*	*rep	*	*	*
!	!	!LO:TX:t=P:problem:łuk poniżej	!	!	!	!	!
2C/	.	8c/L	.	8g-/L	.	.	.
.	.	8A-/	.	8a-/	.	.	.
.	.	8c/	.	8g-/	.	(16dd-X\LL	.
.	.	.	.	.	.	16cc\	.
.	.	8A-/J)	.	8a-/J	.	16b-\	.
*	*	*Xrep	*	*Xrep	*	*	*
.	.	.	.	.	.	16a-\JJ)	.
!!LO:LB:g=original
=95	=95	=95	=95	=95	=95	=95	=95
!	!	!	!	!LO:TX:t=P:problem:łuk poniżej	!	!	!
(16D-X/LL	.	8d-X/L	.	(8f/L	.	[4aa-\	>
16C/	.	.	.	.	.	.	.
16D-/	.	8A-/	.	8a-/	.	.	.
16E-/JJ	.	.	.	.	.	.	.
8F\)	.	8d-/	.	8f/	.	(16aa-\LL]	.
.	.	.	.	.	.	16ff\	.
8r	.	8A-/J	.	8a-/J	.	16aa-\	.
.	.	.	.	.	.	16ff\JJ	.
*	*	*rep	*	*rep	*	*	*
2r	.	8d-/L	.	8f/L	.	8.dd-X\L)	]
.	.	8A-/	.	8a-/	.	.	.
.	.	.	.	.	.	(8qee-/	.
.	.	.	.	.	.	16dd-|\K)	.
.	.	8d-/	.	8f/	.	8.cc|\	.
.	.	8A-/J	.	8a-/J)	.	.	.
*	*	*Xrep	*	*Xrep	*	*	*
.	.	.	.	.	.	16dd-|\Jk	.
=96	=96	=96	=96	=96	=96	=96	=96
.	.	.	.	.	.	(8qddn/	.
!	!	!	!	!LO:TX:t=P:problem:łuk poniżej	!	!	!
(2AA-/	.	8c/L	.	(8g-X/L	.	8ee-\)	.
.	.	8A-/	.	8a-/	.	8r	.
.	.	8c/	.	8g-/	.	[4ee-^<\	.
.	.	8A-/J	.	8a-/J	.	.	.
*	*	*rep	*	*rep	*	*	*
2C/	.	8c/L	.	8g-/L	.	8ee-\L]	.
.	.	8A-/	.	8a-/	.	(16ff\L	.
.	.	.	.	.	.	16ee-\JJ	.
.	.	8c/	.	8g-/	.	16dd-X\LL	.
.	.	.	.	.	.	16cc\	.
.	.	8A-/J	.	8a-/J)	.	16b-\	.
*	*	*Xrep	*	*Xrep	*	*	*
.	.	.	.	.	.	16a-\JJ)	.
=97	=97	=97	=97	=97	=97	=97	=97
*	*	*	*	*Xtremolo	*	*	*
8D-X/)	.	8d-X\L	.	8f/L	.	4dd-X\	.
8D-'/L	.	8d-\	.	8f/	.	.	.
8D-'/	.	8d-\	.	8f/	.	4r	.
8D-'/J	.	8d-\J	.	8f/J	.	.	.
*	*	*	*	*tremolo	*	*	*
!	!LO:HP:a	!	!	!	!	!	!
8D-'/L	<	8d-\L	.	8f/L	.	2r	.
8D-'/	.	8d-\	.	8f/	.	.	.
(8C/	.	8d-\	.	8f/	.	.	.
8BB-/J	[[	8d-\J	.	8f/J	.	.	.
=98	=98	=98	=98	=98	=98	=98	=98
*tremolo	*	*	*	*	*	*	*
!LO:TX:t=P:problem:poniżej główki 7 kropek i łuk	!LO:DY:a	!LO:TX:t=P:problem:t. 98-99 po poprawkach głównego skryptora	!	!	!	!	!
(8AAn/L)	fp	8c\L	.	8f/L	fp	2ff|\	f
8AA/	.	8c\	.	8f/	.	.	.
8AA/	.	8c\	.	8f/	.	.	.
8AA/	.	8c\J	.	8f/J	.	.	.
8AA/	.	8c\L	.	8f/L	.	2cc|\	.
8AA/	.	8c\	.	8f/	.	.	.
8AA/	.	8c\	.	8f/	.	.	.
8AA/J)	.	8c\J	.	8f/J	.	.	.
=99	=99	=99	=99	=99	=99	=99	=99
!	!	!	!	!LO:TX:t=P:problem:takt po poprawkach głównego skryptora	!	!	!
8BB-/L	.	8d-X\L	.	8f/L	.	(16dd-X\LL	.
.	.	.	.	.	.	16ee-\	.
8BB-/	.	8d-\	.	8f/	.	16dd-\	.
.	.	.	.	.	.	16cc\JJ	.
8BB-/	.	8d-\	.	8f/	.	8b-\)	.
8BB-/	.	8d-\J	.	8f/J	.	8r	.
*	*	*Xtremolo	*	*Xtremolo	*	*	*
8BB-/	.	(16d-\LL	.	(16f/LL	.	2r	.
!	!	!	!	!LO:TX:t=P:problem:♭ below	!	!	!
.	.	16e-\	.	16g-X/	.	.	.
8BB-/	.	16d-\	.	16f/	.	.	.
.	.	16c\JJ	.	16e-/JJ	.	.	.
8BB-/	.	8B-\L)	.	8d-X/L)	.	.	.
8BB-/J	.	8d-'\J	.	8f'/J	.	.	.
=100	=100	=100	=100	=100	=100	=100	=100
*	*	*tremolo	*	*tremolo	*	*	*
!	!LO:DY:a	!	!	!	!	!	!
8AAn/L	fp	8c\L	fp	8f/L	fp	(2cc\	.
8AA/	.	8c\	.	8f/	.	.	.
8AA/	.	8c\	.	8f/	.	.	.
8AA/	.	8c\	.	8f/	.	.	.
8AA/	.	8c\	.	8f/	.	4.ff\	.
8AA/	.	8c\	.	8f/	.	.	.
8AA/	.	8c\	.	8f/	.	.	.
8AA/J	.	8c\J	.	8f/J	.	8ee-|\)	.
*Xtremolo	*	*Xtremolo	*	*Xtremolo	*	*	*
!!LO:PB:g=original
=101	=101	=101	=101	=101	=101	=101	=101
*tremolo	*	*tremolo	*	*tremolo	*	*	*
8BB-/L	.	8d-X\L	.	8f/L	.	(16dd-X\LL	.
.	.	.	.	.	.	16cc\	.
8BB-/	.	8d-\	.	8f/	.	16dd-\	.
.	.	.	.	.	.	16ee-\JJ)	.
8BB-/	.	8d-\	.	8f/	.	8ff|\	.
8BB-/J	.	8d-\J	.	8f/J	.	8r	.
*	*	*	*	*Xtremolo	*	*	*
8AA-X/L	.	8d-L 8B-\	.	(16dd-X\LL	.	2r	.
.	.	.	.	16cc\	.	.	.
8AA-/	.	8d- 8B-\	.	16dd-\	.	.	.
.	.	.	.	16ee-\JJ)	.	.	.
8AA-/	.	8d- 8B-\	.	4ff-X|^<\	.	.	.
8AA-/J	.	8d-J 8B-\	.	.	.	.	.
=102	=102	=102	=102	=102	=102	=102	=102
8GG/L	.	8d-XL 8B-\	.	2ee-\	.	1r	.
8GG/	.	8d- 8B-\	.	.	.	.	.
8GG/	.	8d- 8B-\	.	.	.	.	.
8GG/	.	8d- 8B-\	.	.	.	.	.
8GG/	.	8d- 8B-\	.	2b-\	.	.	.
8GG/	.	8d- 8B-\	.	.	.	.	.
8GG/	.	8d- 8B-\	.	.	.	.	.
8GG/J	.	8d-J 8B-\	.	.	.	.	.
=103	=103	=103	=103	=103	=103	=103	=103
8AA-/L	.	8c\L	.	(16cc\LL	.	2r	.
.	.	.	.	16dd-X\	.	.	.
8AA-/	.	8c\	.	16cc\	.	.	.
.	.	.	.	16b-\JJ	.	.	.
8AA-/	.	8c\	.	8a-\)	.	.	.
8AA-/	.	8c\J	.	8r	.	.	.
8AA-/	.	8e-L 8c\	.	2r	.	(16ccc\LL	.
.	.	.	.	.	.	16ddd-X\	.
8AA-/	.	8e- 8c\	.	.	.	16ccc\	.
.	.	.	.	.	.	16bb-\JJ	.
8AA-/	.	8e- 8c\	.	.	.	8aa-\)	.
8AA-/J	.	8e-J 8c\	.	.	.	8r	.
*Xtremolo	*	*	*	*	*	*	*
=104	=104	=104	=104	=104	=104	=104	=104
!LO:TX:t=P:problem:mixed beam	!	!	!	!	!	!	!
8GG\L	.	8e-L 8d-X\	.	2b-\	.	2bb-\	.
8G\	.	8e- 8d-\	.	.	.	.	.
8G\	.	8e- 8d-\	.	.	.	.	.
8G\J	.	8e-J 8d-\	.	.	.	.	.
*tremolo	*	*Xtremolo	*	*	*	*	*
8E-\L	.	8e-L 8G/	.	4.ee-\	.	(4.eee-\	>
8E-\	.	8e- 8G/	.	.	.	.	.
8E-\	.	8G/	.	.	.	.	.
8E-\J	.	8g/J	.	8dd-X\	.	8ddd-X\)	]
*Xtremolo	*	*	*	*	*	*	*
*kcancel	*	*	*	*	*	*	*
=105	=105	=105	=105	=105	=105	=105	=105
*k[f#c#g#d#]	*	*k[f#c#g#d#]	*	*k[f#c#g#d#]	*	*k[f#c#g#d#]	*
!	!	!LO:TX:t=P:problem:takt po poprawkach głównego skryptora	!	!	!	!	!
!LO:TX:t=P:problem:kolejność znaków: En BBn AAn	!LO:DY:a	!LO:TX:t=P:problem:kolejność znaków: en Bn An	!	!	!	!	!
(>2E\	fp	8.g#\L	.	8.b/L	f	4bb\	f
.	.	16e\K	.	16g#K 16B/	p	.	.
.	.	8.e\	.	8.g# 8.B/	.	4r	.
.	.	16e\Jk	.	16g#Jk 16B/	.	.	.
2G#\	.	8.e\L	.	8.g#L 8.B/	.	8.r	.
.	.	16e\K	.	16g#K 16B/	.	16ee\KL	.
.	.	8.e\	.	8.g# 8.B/	.	8.dd#\	.
.	.	16e\Jk	.	16g#Jk 16B/	.	16ee\Jk	.
!!LO:LB:g=original
=106	=106	=106	=106	=106	=106	=106	=106
2F#\	.	8.f#\L	.	8.aL 8.B/	.	(16dd#\LL	.
.	.	.	.	.	.	16ee\)	.
.	.	.	.	.	.	16ff#'\	.
.	.	16f#\K	.	16aK 16B/	.	16gg#'\JJ	.
.	.	8.f#\	.	8.a 8.B/	.	[4aa|^<\	.
.	.	16f#\Jk	.	16aJk 16B/	.	.	.
*	*	*rep	*	*rep	*	*	*
2BB/)	.	8.f#\L	.	8.aL 8.B/	.	8.aa\L]	.
.	.	16f#\K	.	16aK 16B/	.	16b\K	.
.	.	8.f#\	.	8.a 8.B/	.	8.cc#\	.
.	.	16f#\Jk	.	16aJk 16B/	.	16dd#\Jk	.
*	*	*Xrep	*	*Xrep	*	*	*
=107	=107	=107	=107	=107	=107	=107	=107
(>2E\	.	8.e\L	.	8.g#L 8.B/	.	(16ee\LL	.
.	.	.	.	.	.	16dd#\)	.
.	.	.	.	.	.	16ee|\	.
.	.	16e\K	.	16g#K 16B/	.	16ff#|\JJ	.
.	.	8.e\	.	8.g# 8.B/	.	[4gg#|^<\	.
.	.	16e\Jk	.	16g#Jk 16B/	.	.	.
*	*	*rep	*	*rep	*	*	*
2G#\	.	8.e\L	.	8.g#L 8.B/	.	8.gg#\L]	.
.	.	16e\K	.	16g#K 16B/	.	16ee|\K	.
.	.	8.e\	.	8.g# 8.B/	.	8.dd#|\	.
.	.	16e\Jk	.	16g#Jk 16B/	.	16ee|\Jk	.
*	*	*Xrep	*	*Xrep	*	*	*
=108	=108	=108	=108	=108	=108	=108	=108
2F#\	.	8.f#\L	.	8.aL 8.B/	.	(16dd#\LL	.
.	.	.	.	.	.	16ee\)	.
.	.	.	.	.	.	16ff#|\	.
.	.	16f#\K	.	16aK 16B/	.	16gg#|\JJ	.
.	.	8.f#\	.	8.a 8.B/	.	[4aa^<\	.
.	.	16f#\Jk	.	16aJk 16B/	.	.	.
*	*	*rep	*	*rep	*	*	*
2BB/)	.	8.f#\L	.	8.aL 8.B/	.	8.aa\L]	.
.	.	16f#\K	.	16aK 16B/	.	16b|\K	.
.	.	8.f#\	.	8.a 8.B/	.	8.cc#|\	.
.	.	16f#\Jk	.	16aJk 16B/	.	16dd#|\Jk	.
*	*	*Xrep	*	*Xrep	*	*	*
=109	=109	=109	=109	=109	=109	=109	=109
*k[]	*	*k[]	*	*k[]	*	*k[]	*
!LO:TX:t=P:problem:kolejność znaków: Fn Gn Cn Dn	!	!LO:TX:t=P:problem:kolejność znaków: gn fn cn dn	!	!	!	!LO:TX:t=P:problem:mixed beam	!
(2C/	fp	8.e\L	f	4g 4G/	fp	8.ee\L	f
.	.	16c\K	.	.	.	16eK 16G/	p
.	.	8.c\	p	4r	.	8.e 8.G/	.
.	.	16c\Jk	.	.	.	16eJk 16G/	.
2E/	.	8.c\L	.	8.r	.	8.eL 8.G/	.
.	.	16c\K	.	16cc\KL	.	16eK 16G/	.
.	.	8.c\	.	8.b\	.	8.e 8.G/	.
.	.	16c\Jk	.	16cc\Jk	.	16eJk 16G/	.
=110	=110	=110	=110	=110	=110	=110	=110
2D/	.	8.d\L	.	16b\LL	.	8.fL 8.G/	.
.	.	.	.	16cc\	.	.	.
.	.	.	.	16dd\	.	.	.
.	.	16d\K	.	16ee\JJ	.	16fK 16G/	.
.	.	8.d\	.	[4ff\	.	8.f 8.G/	.
.	.	16d\Jk	.	.	.	16fJk 16G/	.
*	*	*rep	*	*	*	*rep	*
!	!	!	!	!LO:TX:t=P:problem:mixed beam	!	!	!
2GG/)	.	8.d\L	.	8.ff\L]	.	8.fL 8.G/	.
.	.	16d\K	.	16g|/K	.	16fK 16G/	.
.	.	8.d\	.	8.a|/	.	8.f 8.G/	.
.	.	16d\Jk	.	16b|/Jk	.	16fJk 16G/	.
*	*	*Xrep	*	*	*	*Xrep	*
!!LO:LB:g=original
=111	=111	=111	=111	=111	=111	=111	=111
!	!	!	!	!LO:TX:t=P:problem:takt po poprawkach głównego skryptora	!	!	!
2C/	.	8.c\L	.	(16cc\LL	.	8.eL 8.G/	.
.	.	.	.	16b\)	.	.	.
.	.	.	.	16cc|\	.	.	.
.	.	16c\K	.	16dd|\JJ	.	16eK 16G/	.
.	.	8.c\	.	[4ee|^<\	.	8.e 8.G/	.
.	.	16c\Jk	.	.	.	16eJk 16G/	.
*	*	*rep	*	*	*	*rep	*
2E\	.	8.c\L	.	8.ee\L]	.	8.eL 8.G/	.
.	.	16c\K	.	16cc|\K	.	16eK 16G/	.
.	.	8.c\	.	8.b|\	.	8.e 8.G/	.
.	.	16c\Jk	.	16cc|\Jk	.	16eJk 16G/	.
*	*	*Xrep	*	*	*	*Xrep	*
=112	=112	=112	=112	=112	=112	=112	=112
2D/	.	8.d\L	.	(16b\LL	.	8.fL 8.G/	.
.	.	.	.	16cc\	.	.	.
.	.	.	.	16dd\	.	.	.
.	.	16d\K	.	16ee\JJ)	.	16fK 16G/	.
.	.	8.d\	.	[4ff^<\	.	8.f 8.G/	.
.	.	16d\Jk	.	.	.	16fJk 16G/	.
*	*	*	*	*	*	*rep	*
!	!	!	!	!LO:TX:t=P:problem:mixed beam	!	!	!
2GG/	.	8.d\L	.	8.ff\L]	.	8.fL 8.G/	.
.	.	16d\K	.	16g|/K	.	16fK 16G/	.
.	.	8.d\	.	8.a|/	.	8.f 8.G/	.
.	.	16d\Jk	.	16b|/Jk	.	16fJk 16G/	.
*	*	*	*	*	*	*Xrep	*
=113	=113	=113	=113	=113	=113	=113	=113
*k[b-]	*	*k[b-]	*	*k[b-]	*	*k[b-]	*
!	!	!	!	!LO:TX:t=P:problem:mixed beam	!	!	!
4C/	.	8.c\L	.	8.cc\L	fp	4e 4G/	.
.	.	16c\K	.	16eK 16G/	.	.	.
4r	.	8.c\	.	8.e 8.G/	.	4r	.
.	.	16c\Jk	.	16eJk 16G/	.	.	.
*	*	*rep	*	*	*	*	*
(2BB-/	>]	8.c\L	.	8.eL 8.G/	.	8.r	.
.	.	16c\K	.	16eK 16G^</	.	16cc|\KL	.
.	.	8.c\	.	8.e 8.G/	.	8.dd\	.
.	.	16c\Jk	.	16eJk 16G/	.	16ee|\Jk	.
*	*	*Xrep	*	*	*	*	*
=114	=114	=114	=114	=114	=114	=114	=114
*	*	*rep	*	*	*	*	*
!	!	!	!	!	!	!LO:TX:t=P:problem:takt po poprawkach głównego skryptora	!
4AA/)	.	8.c\L	.	8.fL 8.A/	.	(16ff\LL	.
.	.	.	.	.	.	16ee\	.
.	.	.	.	.	.	16ff\	.
.	.	16c\K	.	16fK 16A/	.	16gg\JJ	.
4r	.	8.c\	.	8.f 8.A/	.	8aa\)	.
.	.	.	.	.	.	8r	.
.	.	16c\Jk	.	16fJk 16A/	.	.	.
(2BB-/	>]	8.c\L	.	8.eL 8.G^</	.	8.r	.
.	.	16c\K	.	16eK 16G/	.	16cc|\KL	.
.	.	8.c\	.	8.e 8.G/	.	8.dd|\	.
.	.	16c\Jk	.	16eJk 16G/	.	16ee|\Jk	.
*	*	*Xrep	*	*	*	*	*
=115	=115	=115	=115	=115	=115	=115	=115
*	*	*rep	*	*	*	*	*
4AA/)	.	8.c\L	.	8.fL 8.A/	.	(16ff\LL	.
.	.	.	.	.	.	16ee\	.
.	.	.	.	.	.	16ff\	.
.	.	16c\K	.	16fK 16A/	.	16gg\JJ	.
4r	.	8.c\	.	8.f 8.A/	.	8aa\)	.
.	.	.	.	.	.	8r	.
.	.	16c\Jk	.	16fJk 16A/	.	.	.
(2BB-/	>]	8.c\L	.	8.eL 8.G/	.	8.r	.
.	.	16c\K	.	16eK 16G/	.	16cc|\KL	.
.	.	8.c\	.	8.e 8.G/	.	8.dd|\	.
.	.	16c\Jk	.	16eJk 16G/	.	16ee|\Jk	.
*	*	*Xrep	*	*	*	*	*
!!LO:PB:g=original
=116	=116	=116	=116	=116	=116	=116	=116
!LO:TX:t=P:problem:brak łuku (koniec pięciolinii)	!	!	!	!	!	!	!
4AA/)	.	8.c\L	.	8.fL 8.A/	.	(16ff\LL	.
.	.	.	.	.	.	16ee\	.
!	!	!	!	!	!	!	!LO:HP:t=cresc
.	.	.	.	.	.	16ff\	<
.	.	16c\K	.	16fK 16A/	.	16gg\JJ	.
4r	.	8.c\	.	8.f 8.A/	.	8aa\)	.
.	.	.	.	.	.	8r	.
.	.	16c\Jk	.	16fJk 16A/	.	.	.
!	!LO:DY:a	!	!	!	!	!	!
(2AA/	>]	8.e-XL 8.c\	.	8.fL 8.c/	.	(16aa\LL	.
.	.	.	.	.	.	16gg\	<
.	.	.	.	.	.	16aa\	.
.	.	16e-K 16c\	.	16fK 16c/	.	16bb-\JJ	.
.	.	8.e- 8.c\	.	8.f 8.c/	.	8ccc\)	.
.	.	.	.	.	.	8r	.
.	.	16e-Jk 16c\	.	16fJk 16c/	.	.	.
=117	=117	=117	=117	=117	=117	=117	=117
*k[b-e-]	*	*k[b-e-]	*	*k[b-e-]	*	*k[b-e-]	*
!	!	!LO:TX:t=P:problem:t. 117-119 po poprawkach głównego skryptora	!	!LO:TX:t=P:problem:t. 117-119 po poprawkach głównego skryptora	!	!	!
4BB-/)	.	8d 8B-\	.	8f/	.	16ccc\LL	.
.	.	.	.	.	.	16bb-\	.
.	.	8d\L	.	8f/L	.	16aa\	.
.	.	.	.	.	.	16bb-\JJ	.
4r	.	8d\	.	8f 8d/	.	16aa\LL	.
.	.	.	.	.	.	16bb-\	.
.	.	8d\J	.	8fJ 8d/	.	16ddd\	.
.	.	.	.	.	.	16bb-\JJ	.
4E-\	.	8r	.	8r	.	16aa\LL	[
.	.	.	.	.	.	16gg\	.
*	*	*tremolo	*	*tremolo	*	*	*
.	.	8G/L	.	8e-L 8c/	.	16ff#X\	.
.	.	.	.	.	.	16gg\JJ	.
4r	.	8G/	.	8e- 8c/	.	16ff#\LL	.
.	.	.	.	.	.	16gg\	.
.	.	8G/J	.	8e-J 8c/	.	16eee-\	.
.	.	.	.	.	.	16ccc\JJ	.
=118	=118	=118	=118	=118	=118	=118	=118
4F\	.	8r	.	8r	.	16ccc\LL	.
.	.	.	.	.	.	16bb-\	.
.	.	8F/L	.	8dL 8B-/	.	16aa\	.
.	.	.	.	.	.	16bb-\JJ	.
4r	.	8F/	.	8d 8B-/	.	16aa\LL	.
.	.	.	.	.	.	16bb-\	.
.	.	8F/J	.	8dJ 8B-/	.	16ddd\	.
.	.	.	.	.	.	16bb-\JJ	.
4FF/	.	8r	.	8r	.	16bb-\LL	.
.	.	.	.	.	.	16aa\	.
!	!	!	!LO:DY:a	!	!	!	!
.	.	8F/L	f	8e-L 8c/	.	16gg#X\	.
.	.	.	.	.	.	16aa\JJ	.
4r	.	8F/	.	8e- 8c/	.	16gg#\LL	.
.	.	.	.	.	.	16aa\	.
.	.	8F/J	.	8e-J 8c/	.	16ccc\	.
.	.	.	.	.	.	16aa\JJ	.
=119	=119	=119	=119	=119	=119	=119	=119
!LO:TX:t=P:problem:t. 119-120 po poprawkach głównego skryptora	!LO:DY:a	!	!	!	!	!	!
4GG/	f	8r	.	8r	.	16ccc\LL	f
.	.	.	.	.	.	16bb-\	.
.	.	8G/L	.	8dL 8B-/	.	16aa\	.
.	.	.	.	.	.	16bb-\JJ	.
4r	.	8G/	.	8d 8B-/	.	16aa\LL	.
.	.	.	.	.	.	16bb-\	.
.	.	8G/J	.	8dJ 8B-/	.	16ddd\	.
.	.	.	.	.	.	16bb-\JJ	.
4EE-/	.	8r	.	8r	.	16aa\LL	.
.	.	.	.	.	.	16gg\	.
.	.	8G/L	.	8e-L 8c/	.	16ff#X\	.
.	.	.	.	.	.	16gg\JJ	.
4r	.	8G/	.	8e- 8c/	.	16ff#\LL	.
.	.	.	.	.	.	16gg\	.
.	.	8G/J	.	8e-J 8c/	.	16ee-\	.
.	.	.	.	.	.	16cc\JJ	.
!!LO:LB:g=original
=120	=120	=120	=120	=120	=120	=120	=120
!	!	!LO:TX:t=P:problem:takt po poprawkach głównego skryptora	!	!	!	!	!
4FF/	.	8r	.	8r	.	16gg\LL	.
.	.	.	.	.	.	16ff\	.
.	.	8B-/L	.	8dL 8B-/	.	16een\	.
.	.	.	.	.	.	16ff\JJ	.
4r	.	8B-/	.	8d 8B-/	.	16ee\LL	.
.	.	.	.	.	.	16ff\	.
.	.	8B-/J	.	8dJ 8B-/	.	16bb-\	.
*	*	*Xtremolo	*	*Xtremolo	*	*	*
.	.	.	.	.	.	16ddd\JJ	.
4FF/	.	8r	.	8r	.	16eee-X'\LL	.
.	.	.	.	.	.	16ddd'\	.
.	.	8An/L	.	8ee-L 8f/	.	16ccc'\	.
.	.	.	.	.	.	16bb-'\JJ	.
4r	.	8c/	.	8ee- 8f/	.	16aa'\LL	.
.	.	.	.	.	.	16gg'\	.
.	.	8c/J	.	8ee-J 8f/	.	(16ff\	.
.	.	.	.	.	.	32gg\L	.
.	.	.	.	.	.	32aa\JJJ	.
=121	=121	=121	=121	=121	=121	=121	=121
!	!LO:DY:t=p.	!	!	!	!	!	!
4BB-/	p	4B-/	p	2dd^<\	p	4bb-\)	.
4r	.	4r	.	.	.	4r	.
8r	.	2r	.	2b-\	.	2r	.
16r	.	.	.	.	.	.	.
16FF|/KL	.	.	.	.	.	.	.
8.BB-|/	.	.	.	.	.	.	.
16D|/Jk	.	.	.	.	.	.	.
=122	=122	=122	=122	=122	=122	=122	=122
2E-\	.	2r	.	4a\	.	8r	.
.	.	.	.	.	.	8ff'\L	p
.	.	.	.	4cc\	.	8ff'\	.
.	.	.	.	.	.	8ff'\J	.
2C\	.	8.r	.	2r	.	(8een\L	<
.	.	.	.	.	.	8ff\	.
!	!	!	!LO:DY:t=p.	!	!	!	!
.	.	16F|/KL	p	.	.	.	.
.	.	8.c|/	.	.	.	8gg\	[ >
.	.	.	.	.	.	8ff\J)	]]
.	.	16d|/Jk	.	.	.	.	.
=123	=123	=123	=123	=123	=123	=123	=123
4AAn|>/	.	2e-\	.	2r	.	4cc\	.
4FF|>/	.	.	.	.	.	4r	.
2r	.	2c\	.	8.r	.	2r	.
.	.	.	.	16f/KL	.	.	.
.	.	.	.	8.an/	.	.	.
.	.	.	.	16cc/Jk	.	.	.
=124	=124	=124	=124	=124	=124	=124	=124
8r	.	4B-|\	.	2dd\	.	2r	.
8F'\L	.	.	.	.	.	.	.
8F'\	.	4d|\	.	.	.	.	.
8F'\J	.	.	.	.	.	.	.
(8En\L	.	2r	.	2b-\	.	8.r	.
8F\	.	.	.	.	.	.	.
.	.	.	.	.	.	16ff|\KL	.
8G\	.	.	.	.	.	8.bb-|\	.
8F\J)	.	.	.	.	.	.	.
.	.	.	.	.	.	(16ccc\Jk	.
=125	=125	=125	=125	=125	=125	=125	=125
2B-\	.	2r	.	4g/	.	2ddd\)	.
.	.	.	.	4G|/	.	.	.
2G\	.	8.r	.	2r	.	[2bb-|\	.
.	.	16f|\KL	.	.	.	.	.
.	.	8.en|\	.	.	.	.	.
.	.	16f|\Jk	.	.	.	.	.
!!LO:LB:g=original
=126	=126	=126	=126	=126	=126	=126	=126
!	!	!LO:TX:t=P:problem:takt po poprawkach głównego skryptora	!	!	!	!	!
2En\	.	2c\	.	8r	.	4bb-\]	.
.	.	.	.	(8cc'\L	.	.	.
.	.	.	.	8cc'\	.	(4gg|\	.
.	.	.	.	8cc'\J)	.	.	.
2C\	.	2en\	.	(8bn\L	.	4ccc\	.
.	.	.	.	8cc\	.	.	.
.	.	.	.	8dd\	.	4bb-\)	.
.	.	.	.	8cc\J)	.	.	.
=127	=127	=127	=127	=127	=127	=127	=127
!	!	!	!	!LO:TX:t=P:problem:takt po poprawkach głównego skryptora	!	!	!
4F\	.	(8f\L	.	8cc'/L	.	4aa|\	.
.	.	8a\	.	(8cc/	.	.	.
4C\	.	8f\	.	8a/	.	(8.ddd^<\L	.
.	.	8a\J)	.	8cc/J	.	.	.
.	.	.	.	.	.	16ccc\Jk)	.
!	!	!	!	!	!	!	!LO:HP:t=cresc
4En\	.	2g^<\	.	8b-/L	.	4gg|\	<
.	.	.	.	8cc/	.	.	.
4C\	.	.	.	8b-/	.	(8.ddd^<\L	.
.	.	.	.	8cc/J)	.	.	.
.	.	.	.	.	.	16ccc\Jk)	.
=128	=128	=128	=128	=128	=128	=128	=128
*	*	*tremolo	*	*tremolo	*	*	*
4F\	.	(8f\L	.	(8a/L	.	8.gg#X\L	.
.	.	8a\	.	8cc/	.	.	.
!	!	!	!	!	!	!LO:TX:t=P:problem:♮ above	!
.	.	.	.	.	.	16aan\Jk	.
4C\	.	8f\	.	8a/	.	(16ddd\LL	.
.	.	.	.	.	.	16ccc\	.
.	.	8a\J)	.	8cc/J)	.	16ddd\	.
*	*	*Xtremolo	*	*	*	*	*
.	.	.	.	.	.	16ccc\JJ)	.
4En\	.	2g^<\	.	(8b-/L	.	8.ff#X\L	.
.	.	.	.	8cc/	.	.	.
.	.	.	.	.	.	16ggn\Jk	.
4C\	.	.	.	8b-/	.	(16ddd\LL	.
.	.	.	.	.	.	16ccc\	.
.	.	.	.	8cc/J)	.	16ddd\	.
.	.	.	.	.	.	16ccc\JJ)	.
=129	=129	=129	=129	=129	=129	=129	=129
4F\	f	(8f\L	.	(8a/L	.	8.aan\L	f
.	.	8a\	.	8cc/	.	.	.
.	.	.	.	.	.	16ccc\Jk	.
4FF/	.	8f\	.	8a/	.	4fffn^<\	.
.	.	8a\J)	.	8cc/J)	.	.	.
*	*	*tremolo	*	*	*	*	*
4BB-/	.	(8g\L	.	(8b-/L	.	8.eeen\L	.
.	.	8b-\	.	8g/	.	.	.
.	.	.	.	.	.	16ddd\Jk	.
4BB-/	.	8g\	.	8b-/	.	16ccc\LL	.
.	.	.	.	.	.	16bb-\	.
.	.	8b-\J)	.	8g/J)	.	16aa\	.
*	*	*Xtremolo	*	*Xtremolo	*	*	*
.	.	.	.	.	.	16gg\JJ	.
=130	=130	=130	=130	=130	=130	=130	=130
*	*	*	*	*	*	*Xtuplet	*
4C/	.	4a\	.	4an 4f/	.	12ff\L	.
.	.	.	.	.	.	12aan^<\	.
.	.	.	.	.	.	12bb-\J	.
4C/	.	4f\	.	4a 4f/	.	12ccc\L	.
.	.	.	.	.	.	12bb-\	.
.	.	.	.	.	.	12aa\J	.
4CC/	.	4r	.	4r	.	12gg'\L	.
.	.	.	.	.	.	12aa'\	.
.	.	.	.	.	.	12bb-'\J	.
!	!	!	!	!	!LO:DY:a	!	!
4CC/	.	[4c/	.	(4b- 4g/	>]	12ccc'\L	.
.	.	.	.	.	.	12ddd'\	.
.	.	.	.	.	.	12eeen'\J	.
=131	=131	=131	=131	=131	=131	=131	=131
4FF/	.	8c/L]	.	8aL 8f/)	.	4fff'\	.
.	.	8c/	p	8a 8f/	.	.	.
4r	.	8c/	.	8a 8f/	.	4r	.
.	.	8c/J	.	8aJ 8f/	.	.	.
!	!	!	!	!	!LO:DY:a	!	!
8.r	.	(2c/	.	8.aL 8.f/	p	(2ff\	p
16F|\KL	.	.	.	16a/K	.	.	.
8.En|\	.	.	.	8.g/	.	.	.
16F|\Jk	.	.	.	16a/Jk	.	.	.
!!LO:PB:g=original
=132	=132	=132	=132	=132	=132	=132	=132
!LO:TX:t=P:problem:takt po poprawkach głównego skryptora	!	!LO:TX:t=P:problem:t. 132-137 po poprawkach głównego skryptora	!	!LO:TX:t=P:problem:wykreślona przednutka 8an	!	!	!
8G\	.	(16B-/LL)	.	8b-/	.	2ff\)	.
.	.	16c/	.	.	.	.	.
8r	.	16B-/	.	8r	.	.	.
.	.	16A/JJ	.	.	.	.	.
2G^>\	.	8G/)	.	2.b-/	.	.	.
.	.	8r	.	.	.	.	.
.	.	4r	.	.	.	4een|\	.
!	!	!LO:TX:t=P:problem:łuk	!	!	!	!	!
(16F\LL	.	(4en\	.	.	.	(4gg|\	.
16En\	.	.	.	.	.	.	.
16D\	.	.	.	.	.	.	.
16C\JJ)	.	.	.	.	.	.	.
=133	=133	=133	=133	=133	=133	=133	=133
*	*	*^	*	*	*	*	*
(4.F\	.	8f/L)	8ryy	.	4.a/	.	16aa\LL	.
.	.	.	.	.	.	.	16bb-\	.
.	.	8c'/	8c\L	.	.	.	16aa\	.
.	.	.	.	.	.	.	16gg\JJ	.
.	.	8c'/	8c\	.	.	.	8ff\)	.
8A\)	.	8c'/J	8c\J	.	(8cc/	.	8r	.
8.F\L	.	(2c/	2ryy	>	8.a/L)	.	[2ff\	>]
16F\K	.	.	.	.	16a/K	.	.	.
8.En\	.	.	.	.	8.g/	.	.	.
16F\Jk	.	.	.	]	16a/Jk	.	.	.
*	*	*v	*v	*	*	*	*	*
=134	=134	=134	=134	=134	=134	=134	=134
!LO:TX:t=P:problem:takt po poprawkach głównego skryptora	!	!	!	!	!	!	!
(8qF/	.	.	.	(8qan/	.	.	.
8G\)	.	16B-/LL)	.	8b-/)	.	2ff\]	.
.	.	16c/	.	.	.	.	.
8r	.	16B-/	.	8r	.	.	.
.	.	16A/JJ	.	.	.	.	.
2G\	.	8G/	.	2.b-/	.	.	.
.	.	8r	.	.	.	.	.
.	.	4r	.	.	.	4een|\	.
!	!	!LO:TX:t=P:problem:łuk	!	!	!	!	!
(16F\LL	.	(4en\	.	.	.	4gg|\	.
16En\	.	.	.	.	.	.	.
16D\	.	.	.	.	.	.	.
16C\JJ)	.	.	.	.	.	.	.
=135	=135	=135	=135	=135	=135	=135	=135
*	*	*^	*	*	*	*	*
4F\	.	8ryy	8f\L)	.	4an/	.	(16aa\LL	.
.	.	.	.	.	.	.	16bb-\	.
.	.	8c'/L	8c\	.	.	.	16aa\	.
.	.	.	.	.	.	.	16gg\JJ	.
(16A\LL	.	8c'/	8c\	.	(16cc/LL	.	8ff\)	.
16G#X\	.	.	.	.	16bn/	.	.	.
16A\	.	8c'/J	8c\J	.	16cc/	.	8r	.
16Gn\JJ	.	.	.	.	16b-X/JJ	.	.	.
8.F\L)	.	(2c/	2ryy	.	8.a/L)	.	[2ff\	>]
8qG/	.	.	.	.	8qb-/	.	.	.
16F\K	.	.	.	.	16a/K	.	.	.
8.En\	.	.	.	.	8.g/	.	.	.
16F\Jk	.	.	.	.	16a/Jk	.	.	.
*	*	*v	*v	*	*	*	*	*
=136	=136	=136	=136	=136	=136	=136	=136
!	!	!	!	!LO:TX:t=P:problem:t. 136-137 po poprawkach głównego skryptora	!	!	!
(8qF/	.	.	.	(8qan/	.	.	.
8G\)	.	(16B-/LL)	.	8b-/)	.	2ff\]	.
.	.	16c/	.	.	.	.	.
8r	.	16B-/	.	8r	.	.	.
.	.	16A/JJ	.	.	.	.	.
[4G\	.	8G/)	.	2b-/	.	.	.
.	.	8r	.	.	.	.	.
8G\L]	.	4r	.	.	.	4een|\	.
16A\L	.	.	.	.	.	.	.
16G\JJ	.	.	.	.	.	.	.
(16F\LL	.	4B-/	.	4gg 4b-\	.	4eeen 4gg|\	.
16En\	.	.	.	.	.	.	.
16D\	.	.	.	.	.	.	.
16C\JJ)	.	.	.	.	.	.	.
=137	=137	=137	=137	=137	=137	=137	=137
*k[b-e-a-]	*	*k[b-e-a-]	*	*k[b-e-a-]	*	*k[b-e-a-]	*
*tremolo	*	*	*	*tremolo	*	*	*
!LO:TX:t=P:problem:łuk powyżej	!	!	!	!	!	!	!
8D-X\L	fp	4B-X/	fp	8ffL 8a-X\	fp	2fff 2ff\	f
8D-\	.	.	.	8ff 8a-\	.	.	.
8D-\	.	4r	.	8ff 8a-\	.	.	.
8D-\	.	.	.	8ff 8a-\	.	.	.
8D-\	.	2r	.	8ff 8a-\	.	2ddd-X\	.
8D-\	.	.	.	8ff 8a-\	.	.	.
8D-\	.	.	.	8ff 8a-\	.	.	.
8D-\J	.	.	.	8ffJ 8a-\	.	.	.
!!LO:LB:g=original
=138	=138	=138	=138	=138	=138	=138	=138
!LO:TX:t=P:problem:8 kropek i łuk powyżej	!	!	!	!	!	!	!
(8D-X\L	.	8r	.	8ffL 8a-X\	.	(16aa-X\LL	.
.	.	.	.	.	.	16bb-\	.
8D-\	.	(8a-X'\L	.	8ff 8a-/	.	16aa-\	.
!	!	!	!	!	!	!LO:TX:t=P:problem:♭ above	!
.	.	.	.	.	.	16gg-X\JJ	.
8D-\	.	8a-'\	.	8ff 8a-/	.	8ff\)	.
8D-\	.	8a-'\J)	.	8ff 8a-/	.	8r	.
8D-\	.	(8g\L	<	8ff 8a-/	.	2r	.
8D-\	.	8a-\	.	8ff 8a-/	.	.	.
8D-\	.	8b-\	[ >	8ff 8a-/	.	.	.
8D-\J)	.	8a-\J)	]]	8ffJ 8a-/	.	.	.
*	*	*	*	*Xtremolo	*	*	*
=139	=139	=139	=139	=139	=139	=139	=139
*	*	*tremolo	*	*	*	*	*
!	!	!LO:TX:t=P:problem:8 kropek i łuk powyżej	!	!	!	!	!
8Dn\L	fp	(8a-L 8B-\	fp	2ff\	f	2r	.
8D\	.	8a- 8B-\	.	.	.	.	.
8D\	.	8a- 8B-\	.	.	.	.	.
8D\	.	8a- 8B-\	.	.	.	.	.
8D\	.	8a- 8B-\	.	2ddn\	.	[2ff\	.
8D\	.	8a- 8B-\	.	.	.	.	.
8D\	.	8a- 8B-\	.	.	.	.	.
8D\J	.	8a-J 8B-\)	.	.	.	.	.
=140	=140	=140	=140	=140	=140	=140	=140
8D\L	.	(8a-L 8B-\	.	16b-/LL	.	8ff\]	.
.	.	.	.	16an/	.	.	.
8D\	.	8a- 8B-\	.	16b-/	.	(8bb-'\L	.
.	.	.	.	16cc-X/JJ	.	.	.
8D\	.	8a- 8B-\	.	8b-/	.	8bb-'\	.
8D\	.	8a- 8B-\	.	8r	.	8bb-'\J)	.
8D\	.	8a- 8B-\	.	2r	.	(8aan\L	<
8D\	.	8a- 8B-\	.	.	.	8bb-\	.
8D\	.	8a- 8B-\	.	.	.	8ccc-X\	[ >
8D\J	.	8a-J 8B-\)	.	.	.	8bb-\J)	]]
*Xtremolo	*	*	*	*	*	*	*
=141	=141	=141	=141	=141	=141	=141	=141
!	!LO:DY:a	!	!LO:DY:a	!	!	!	!
2E-|\	f	8g-XL 8B-\	fp	1r	.	2r	.
.	.	8g- 8B-\	.	.	.	.	.
.	.	8g- 8B-\	.	.	.	.	.
.	.	8g- 8B-\	.	.	.	.	.
2BB-|/	.	8g- 8B-\	.	.	.	[2ee-\	.
.	.	8g- 8B-\	.	.	.	.	.
.	.	8g- 8B-\	.	.	.	.	.
.	.	8g-J 8B-\	.	.	.	.	.
=142	=142	=142	=142	=142	=142	=142	=142
(16GG-X/LL	.	8g-XL 8B-\	.	8r	.	8ee-\L]	.
16AA-X/	.	.	.	.	.	.	.
!	!	!	!	!	!	!LO:TX:t=P:problem:łuk powyżej	!
16GG-/	.	8g- 8B-\	.	(8gg-X'\L	.	(8ee-'\	.
16FF/JJ	.	.	.	.	.	.	.
8EE-/)	.	8g- 8B-\	.	8gg-'\	.	8ee-'\	.
8r	.	8g- 8B-\	.	8gg-'\J)	.	8ee-'\J	.
*	*	*	*	*	*	*tremolo	*
!	!	!	!	!	!	!LO:TX:t=P:problem:4 kropki powyżej	!
2r	.	8g- 8B-\	.	(8ff\L	<	8ee-\L	.
.	.	8g- 8B-\	.	8gg-\	.	8ee-\	.
.	.	8g- 8B-\	.	8aa-\	[ >	8ee-\	.
.	.	8g-J 8B-\	.	8gg-\J)	]]	8ee-\J)	.
=143	=143	=143	=143	=143	=143	=143	=143
*	*	*	*	*tremolo	*	*	*
!	!	!	!	!LO:TX:t=P:problem:8 kropek i łuk powyżej	!	!LO:TX:t=P:problem:8 kropek i łuk powyżej	!
1r	.	2cc|\	f	(8ggnL 8b-\	fp	(8een\L	fp
.	.	.	.	8gg 8b-\	.	8ee\	.
.	.	.	.	8gg 8b-\	.	8ee\	.
.	.	.	.	8gg 8b-\	.	8ee\	.
.	.	2gn|\	.	8gg 8b-\	.	8ee\	.
.	.	.	.	8gg 8b-\	.	8ee\	.
.	.	.	.	8gg 8b-\	.	8ee\	.
.	.	.	.	8ggJ 8b-\)	.	8ee\J)	.
!!LO:LB:g=original
=144	=144	=144	=144	=144	=144	=144	=144
8r	.	(16en\LL	.	8ggnL 8b-\	.	8een\L	.
.	.	16d\	.	.	.	.	.
8c'\L	.	16e\	.	8gg 8b-\	.	8ee\	.
.	.	16f\JJ	.	.	.	.	.
8c'\	.	8g\)	.	8gg 8b-\	.	8ee\	.
8c'\J	.	8r	.	8gg 8b-\	.	8ee\	.
(8Bn\L	<	2r	.	8gg 8b-\	.	8ee\	.
8c\	.	.	.	8gg 8b-\	.	8ee\	.
8d-X\	[ >	.	.	8gg 8b-\	.	8ee\	.
8c\J)	]]	.	.	8ggJ 8b-\	.	8ee\J	.
*	*	*	*	*	*	*Xtremolo	*
=145	=145	=145	=145	=145	=145	=145	=145
*tremolo	*	*	*	*	*	*	*
8F\L	fp	1r	.	8ffL 8a-X\	fp	2ccc\	f
8F\	.	.	.	8ff 8a-\	.	.	.
8F\	.	.	.	8ff 8a-\	.	.	.
8F\	.	.	.	8ff 8a-\	.	.	.
8F\	.	.	.	8ff 8a-\	.	2aa-X\	.
8F\	.	.	.	8ff 8a-\	.	.	.
8F\	.	.	.	8ff 8a-\	.	.	.
8F\J	.	.	.	8ffJ 8a-\	.	.	.
*Xtremolo	*	*	*	*	*	*	*
=146	=146	=146	=146	=146	=146	=146	=146
!LO:TX:t=P:problem:mixed beam	!	!	!	!	!	!	!
(8F\L	.	8r	.	8ffL 8a-\	.	(16ff\LL	.
.	.	.	.	.	.	16een\	.
8FF/)	.	(8f'\L	.	8ff 8a-\	.	16ff\	.
.	.	.	.	.	.	16gg\JJ	.
8FF'/	.	8f'\	.	8ff 8a-\	.	8aa-X\)	.
8FF'/J	.	8f'\J)	.	8ff 8a-\	.	8r	.
*tremolo	*	*	*	*	*	*	*
!LO:TX:t=P:problem:4 kropki i łuk poniżej	!	!	!	!	!	!	!
(8FF/L	.	(8en\L	<	8ff 8a-\	.	2r	.
8FF/	.	8f\	.	8ff 8a-\	.	.	.
8FF/	.	8g-X\	[ >	8ff 8a-\	.	.	.
8FF/J)	.	8f\J)	]]	8ffJ 8a-\	.	.	.
*	*	*	*	*Xtremolo	*	*	*
=147	=147	=147	=147	=147	=147	=147	=147
!	!	!LO:TX:t=P:problem:8 kropek i łuk powyżej	!	!	!	!	!
8FF#X/L	fp	(8anL 8d\	fp	2ddd\	f	1r	.
8FF#/	.	8a 8d\	.	.	.	.	.
8FF#/	.	8a 8d\	.	.	.	.	.
8FF#/	.	8a 8d\	.	.	.	.	.
8FF#/	.	8a 8d\	.	2aan\	.	.	.
8FF#/	.	8a 8d\	.	.	.	.	.
8FF#/	.	8a 8d\	.	.	.	.	.
8FF#/J	.	8aJ 8d\)	.	.	.	.	.
*Xtremolo	*	*	*	*	*	*	*
=148	=148	=148	=148	=148	=148	=148	=148
!LO:TX:t=P:problem:mixed beam	!	!	!	!	!	!	!
(8FF#X/L	.	8ccL 8d\	.	(16ff#X\LL	.	8r	.
.	.	.	.	16een\	.	.	.
8F#X\)	.	8cc 8d\	.	16ff#\	.	(8ddd'\L	.
.	.	.	.	16gg\JJ	.	.	.
(8F#'\	.	8cc 8d\	.	8aan\)	.	8ddd'\	.
8F#'\J	.	8cc 8d\	.	8r	.	8ddd'\J)	.
*tremolo	*	*	*	*tremolo	*	*	*
!LO:TX:t=P:problem:4 kropki i łuk powyżej	!	!	!	!	!	!	!
8F#\L	.	8cc 8d\	.	8an/L	.	(8ccc#X\L	<
8F#\	.	8cc 8d\	.	8a/	.	8ddd\	.
8F#\	.	8cc 8d\	.	8a/	.	8eee-\	[ >
8F#\J)	.	8ccJ 8d\	.	8a/J	.	8ddd\J)	]]
*Xtremolo	*	*	*	*	*	*	*
=149	=149	=149	=149	=149	=149	=149	=149
!LO:TX:t=P:problem:t. 49-50 po poprawkach głównego skryptora	!	!	!	!	!	!	!
!	!	!	!	!LO:TX:t=P:problem:8 kropek i łuk poniżej	!	!	!
2G|<\	f	8b-L 8d\	fp	(8g/L	fp	4ddd\	.
.	.	8b- 8d\	.	8g/	.	.	.
.	.	8b- 8d\	.	8g/	.	4r	.
.	.	8b- 8d\	.	8g/	.	.	.
2D|<\	.	8b- 8d\	.	8g/	.	2r	.
.	.	8b- 8d\	.	8g/	.	.	.
.	.	8b- 8d\	.	8g/	.	.	.
.	.	8b-J 8d\	.	8g/J)	.	.	.
*	*	*	*	*Xtremolo	*	*	*
!!LO:PB:g=original
=150	=150	=150	=150	=150	=150	=150	=150
!	!	!LO:TX:t=P:problem:łuk powyżej	!	!	!	!	!
(<16BB-\LL	.	(8b-L 8d\	.	8g/	.	1r	.
16C\	.	.	.	.	.	.	.
16BB-\	.	8b- 8d\	.	(8dd'\L	.	.	.
16AA-\JJ	.	.	.	.	.	.	.
8GG\)	.	8b- 8d\	.	8dd'\	.	.	.
8r	.	8b- 8d\	.	8dd'\J)	.	.	.
4r	.	8b- 8d\	.	(8cc#X\L	<	.	.
.	.	8b- 8d\	.	8dd\	.	.	.
!	!LO:DY:a	!	!	!	!	!	!
(4G\	>]	8b- 8d\	.	8ee-\	[ >	.	.
.	.	8b-J 8d\)	.	8dd\J)	]]	.	.
=151	=151	=151	=151	=151	=151	=151	=151
*	*	*tremolo	*	*	*	*	*
!	!	!LO:TX:t=P:problem:łuk powyżej	!	!	!	!LO:TX:t=P:problem:t. 151-154 po poprawkach głównego skryptora	!
4A-X\)	.	(8b-L 8d\	.	4dd\	.	(2bb-\	.
.	.	8b- 8d\	.	.	.	.	.
4F|\	.	8b- 8d\	.	4d/	.	.	.
.	.	8b-J 8d\	.	.	.	.	.
8.r	.	8b-L 8f\	.	8.r	.	2aa-X\	.
.	.	8b- 8f\	.	.	.	.	.
16BB-|/KL	.	.	.	16d|/KL	.	.	.
8.C|/	.	8b- 8f\	.	8.e-|/	.	.	.
.	.	8b-J 8f\)	.	.	.	.	.
*	*	*Xtremolo	*	*	*	*	*
16D|/Jk	.	.	.	16f|/Jk	.	.	.
=152	=152	=152	=152	=152	=152	=152	=152
(16E-\LL	.	8b- 8g\	.	(16g/LL	.	8gg\)	.
16D\	.	.	.	16f/	.	.	.
16E-\	.	8r	.	16g/	.	8r	.
16F\JJ	.	.	.	16an/JJ	.	.	.
!	!	!	!	!	!LO:HP:a:t=cresc	!	!
8G\)	.	4r	.	8b-/)	<	4r	.
8r	.	.	.	8r	.	.	.
4r	.	(16g\LL	.	4r	.	(16ee-\LL	.
.	.	16f\	.	.	.	16dd\	.
.	.	16g\	.	.	.	16ee-\	.
.	.	16a-X\JJ	.	.	.	16ff\JJ	.
8r	.	8b-\)	.	8r	.	8gg\)	.
!LO:TX:t=P:problem:wykreślone 8G	!LO:HP:a	!	!	!	!	!	!
(8B-X\	>	8r	.	(8g/	>]	8r	.
=153	=153	=153	=153	=153	=153	=153	=153
*	*	*tremolo	*	*	*	*	*
!	!	!LO:TX:t=P:problem:t. 153-157 po poprawkach głównego skryptora	!	!	!	!	!
4A-\)	]	8b-L 8d\	.	4f/)	.	(2bb-\	.
.	.	8b- 8d\	.	.	.	.	.
4F\	.	8b- 8d\	.	4d|/	.	.	.
.	.	8b-J 8d\	.	.	.	.	.
8.r	.	8b-\L	.	8.r	.	2aa-\	.
.	.	8b-\	.	.	.	.	.
16BB-|/KL	.	.	.	16d|/KL	.	.	.
8.C|/	.	8b-\	.	8.e-|/	.	.	.
.	.	8b-\J	.	.	.	.	.
*	*	*Xtremolo	*	*	*	*	*
16D|/Jk	.	.	.	16f|/Jk	.	.	.
=154	=154	=154	=154	=154	=154	=154	=154
(16E-\LL	.	8b-\	.	(16g/LL	.	8gg\)	.
16D\	.	.	.	16f/	.	.	.
16E-\	.	8r	.	16g/	.	8r	.
16F\JJ	.	.	.	16a-/JJ	.	.	.
8G\)	.	4r	.	8b-/)	.	4r	.
8r	.	.	.	8r	.	.	.
4r	.	(16g\LL	.	4r	.	(16ee-\LL	.
.	.	16f\	.	.	.	16dd\	.
.	.	16g\	.	.	.	16ee-\	.
.	.	16a-\JJ	.	.	.	16ff\JJ	.
8r	.	8b-\)	.	8r	.	8gg\)	.
!	!LO:HP:a	!	!	!	!	!	!
(8B-\	>]	8r	.	(8g/	>]	8r	.
=155	=155	=155	=155	=155	=155	=155	=155
*	*	*tremolo	*	*	*	*	*
4A-X\)	.	8b-L 8d\	.	4f/)	.	(2bb-\	.
.	.	8b- 8d\	.	.	.	.	.
4F|\	.	8b- 8d\	.	4d/	.	.	.
.	.	8b-J 8d\	.	.	.	.	.
8.r	.	8b-L 8f\	.	8.r	.	8.dd\L)	.
.	.	8b- 8f\	.	.	.	.	.
16BB-|/KL	.	.	.	16d|/KL	.	16b-|\K	.
8.C|/	.	8b- 8f\	.	8.e-|/	.	8.aa-|\	.
.	.	8b-J 8f\	.	.	.	.	.
*	*	*Xtremolo	*	*	*	*	*
16D|/Jk	.	.	.	16f|/Jk	.	16ff|\Jk	.
!!LO:LB:g=original
=156	=156	=156	=156	=156	=156	=156	=156
!	!	!	!	!LO:TX:t=P:problem:takt po poprawkach głównego skryptora	!	!	!
4E-\	f	8b- 8g\	f	8g/	f	16ff\LL	f
.	.	.	.	.	.	16ee-\	.
.	.	8e-\L	.	8gL 8B-/	.	16dd\	.
.	.	.	.	.	.	16ee-\JJ	.
4r	.	8e-\	.	8g 8B-/	.	16dd\LL	.
.	.	.	.	.	.	16ee-\	.
.	.	8e-\J	.	8gJ 8B-/	.	16gg\	.
.	.	.	.	.	.	16ee-\JJ	.
4A-\	.	8r	.	8r	.	16gg\LL	.
.	.	.	.	.	.	16ff\	.
*	*	*tremolo	*	*tremolo	*	*	*
.	.	8e-\L	.	8fL 8c/	.	16een\	.
.	.	.	.	.	.	16ff\JJ	.
4r	.	8e-\	.	8f 8c/	.	16ee\LL	.
.	.	.	.	.	.	16ff\	.
.	.	8e-\J	.	8fJ 8c/	.	16aa-\	.
.	.	.	.	.	.	16gg\JJ	.
=157	=157	=157	=157	=157	=157	=157	=157
4B-\	.	8r	.	8r	.	16ff\LL	.
.	.	.	.	.	.	16ee-X\	.
.	.	8e-\L	.	8gL 8B-/	.	16dd\	.
.	.	.	.	.	.	16ee-\JJ	.
4r	.	8e-\	.	8g 8B-/	.	16dd\LL	.
.	.	.	.	.	.	16ee-\	.
.	.	8e-\J	.	8gJ 8B-/	.	16gg\	.
.	.	.	.	.	.	16ee-\JJ	.
4BB-/	.	8r	.	8r	.	16ee-\LL	.
.	.	.	.	.	.	16dd\	.
.	.	8f\L	.	8a-L 8B-/	.	16cc#X\	.
.	.	.	.	.	.	16dd\JJ	.
4r	.	8f\	.	8a- 8B-/	.	16cc#\LL	.
.	.	.	.	.	.	16dd\	.
.	.	8f\J	.	8a-J 8B-/	.	16ff\	.
*	*	*	*	*Xtremolo	*	*	*
.	.	.	.	.	.	16dd\JJ	.
=158	=158	=158	=158	=158	=158	=158	=158
4C/	.	8r	.	8r	.	16ff\LL	.
.	.	.	.	.	.	16ee-\	.
.	.	8e-\L	.	8g/L	.	16dd\	.
.	.	.	.	.	.	16ee-\JJ	.
4r	.	8e-\	.	8g/	.	16dd\LL	.
.	.	.	.	.	.	16ee-\	.
.	.	8e-\J	.	8g/J	.	16gg\	.
.	.	.	.	.	.	16ee-\JJ	.
4A-\	.	8r	.	8r	.	16gg\LL	.
.	.	.	.	.	.	16ff\	.
.	.	8e-\L	.	8fL 8c/	.	16een\	.
.	.	.	.	.	.	16ff\JJ	.
4r	.	8e-\	.	8f 8c/	.	16ee\LL	.
.	.	.	.	.	.	16ff\	.
.	.	8e-\J	.	8fJ 8c/	.	16aa-\	.
.	.	.	.	.	.	16ccc\JJ	.
=159	=159	=159	=159	=159	=159	=159	=159
!	!	!	!	!	!	!LO:TX:t=P:problem:takt po poprawkach głównego skryptora	!
4B-\	.	8r	.	8r	.	16ccc\LL	.
.	.	.	.	.	.	16bb-\	.
*	*	*	*	*tremolo	*	*	*
.	.	8e-\L	.	8gL 8B-/	.	16aan\	.
.	.	.	.	.	.	16bb-\JJ	.
4r	.	8e-\	.	8g 8B-/	.	16aa\LL	.
.	.	.	.	.	.	16bb-\	.
.	.	8e-\J	.	8gJ 8B-/	.	16eee-\	.
.	.	.	.	.	.	16gg\JJ	.
8.BB-|/L	.	8r	.	8r	.	16ddd\LL	.
.	.	.	.	.	.	16ccc\	.
.	.	8f\L	.	8a-L 8B-/	.	16bb-X\	.
16BB-|/K	.	.	.	.	.	16aa\JJ	.
8.D|/	.	8f\	.	8a- 8B-/	.	16gg\LL	.
.	.	.	.	.	.	16ff\	.
.	.	8f\J	.	8a-J 8B-/	.	16bb-'\	.
*	*	*Xtremolo	*	*Xtremolo	*	*	*
(16F/Jk	.	.	.	.	.	16dd\JJ	.
=160	=160	=160	=160	=160	=160	=160	=160
!	!	!	!	!LO:TX:t=P:problem:takt po poprawkach głównego skryptora	!	!	!
2G\)	.	[4e-\	fp	4g 4B-/	rfz	4ee-\	.
.	.	4e-\]	.	4g 4B-/	.	4r	.
2E-|\	.	4r	.	4r	.	2r	.
.	.	4e-\	.	4g 4B-/	.	.	.
!!LO:LB:g=original
=161	=161	=161	=161	=161	=161	=161	=161
4D|\	.	4r	.	4r	.	1r	.
4F|\	.	4d\	.	4a- 4B-|/	.	.	.
8.r	.	4d\	.	4a- 4B-|/	.	.	.
16BB-|/KL	.	.	.	.	.	.	.
8.D|/	.	4r	.	4r	.	.	.
(16F/Jk	.	.	.	.	.	.	.
=162	=162	=162	=162	=162	=162	=162	=162
!	!	!	!	!LO:TX:t=P:problem:takt po poprawkach głównego skryptora	!	!	!
2A-\)	.	4r	.	4r	.	1r	.
.	.	4d\	.	4f 4B-/	.	.	.
2F\	.	4r	.	4r	.	.	.
.	.	4d\	.	4a- 4B-/	.	.	.
=163	=163	=163	=163	=163	=163	=163	=163
4E-|\	.	4r	.	4r	.	2r	.
4G|\	.	4e-\	.	4g 4B-/	.	.	.
2r	.	4e-\	.	4g 4B-/	.	8.r	.
.	.	.	.	.	.	16ee-\KL	.
.	.	4r	.	4r	.	8.gg\	.
.	.	.	.	.	.	16aa-\Jk	.
=164	=164	=164	=164	=164	=164	=164	=164
8.r	.	8.r	.	8.r	.	8bb-\	.
.	.	.	.	.	.	8r	.
16GG/KL	.	16B-/KL	.	16e-/KL	mf	.	.
8.BB-/	.	8.B-/	.	8.e-/	.	[4bb-^<\	.
16E-/Jk	.	16B-/Jk	.	16e-/Jk	.	.	.
4GG/	.	4B-/	.	4e-/	.	8bb-\L]	.
.	.	.	.	.	.	16eee-\L	.
.	.	.	.	.	.	16ddd\JJ	.
4r	.	4r	.	4r	.	16ccc\LL	.
.	.	.	.	.	.	16bb-\	.
.	.	.	.	.	.	16aa-\	.
.	.	.	.	.	.	16gg\JJ	.
=165	=165	=165	=165	=165	=165	=165	=165
8.r	.	8.r	.	8.r	.	8ff\	.
.	.	.	.	.	.	8r	.
16AA-/KL	.	16c\KL	.	16f/KL	.	.	.
8.C/	.	8.c\	.	8.f/	.	[4ccc^<\	.
16F/Jk	.	16c\Jk	.	16f/Jk	.	.	.
4AA-/	.	4c\	.	4f/	.	8ccc\L]	.
.	.	.	.	.	.	(16ddd\L	.
.	.	.	.	.	.	16ccc\JJ	.
4r	.	4r	.	4r	.	16bb-\LL	.
.	.	.	.	.	.	16aa-\	.
.	.	.	.	.	.	16gg\	.
.	.	.	.	.	.	16ff\JJ)	.
=166	=166	=166	=166	=166	=166	=166	=166
*^	*	*	*	*	*	*	*
!	!	!	!LO:TX:t=P:problem:takt po poprawkach głównego skryptora	!	!	!	!	!
8.BB-/L	2ryy	.	8.r	.	8.r	.	16ee-\LL	.
.	.	.	.	.	.	.	16ff\	.
.	.	.	.	.	.	.	16gg\	.
!	!	!	!	!LO:DY:a	!	!	!	!
16E-/K	.	.	16e-\KL	f	16gKL 16B-/	.	16aa-\JJ	.
8.G/	.	.	8.e-\	.	8.g 8.B-/	.	16bb-\LL	.
.	.	.	.	.	.	.	16ccc\	.
.	.	.	.	.	.	.	16ddd\	.
16E-/Jk	.	.	16e-\Jk	.	16gJk 16B-/	.	16eee-\JJ	.
!	!LO:TX:t=P:problem:niepewna interpretacja drugiego głosu	!	!	!	!	!	!	!
8.BB-/L	8BB-\	.	8.f\L	.	8.a-L 8.B-/	.	16fff\LL	.
.	.	.	.	.	.	.	16eee-\	.
.	8r	.	.	.	.	.	16ddd\	.
16F/K	.	.	16f\K	.	16a-Jk 16B-/	.	16ccc\JJ	.
*	*	*	*	*	*rep	*	*	*
8.D/	8BB-\	.	8.d\	.	8.a-L 8.B-/	.	16bb-\LL	.
.	.	.	.	.	.	.	16aa-\	.
.	8r	.	.	.	.	.	16gg\	.
16BB-/Jk	.	.	16d\Jk	.	16a-Jk 16B-/	.	16ff\JJ	.
*	*	*	*	*	*Xrep	*	*	*
*v	*v	*	*	*	*	*	*	*
!!LO:PB:g=original
=167	=167	=167	=167	=167	=167	=167	=167
*	*	*tremolo	*	*tremolo	*	*	*
!	!	!	!	!	!LO:DY:a	!	!
4E-\	fp	8e-\L	fp	(8g/L	fp	4ee-\	.
.	.	8g\	.	8b-/	.	.	.
4r	.	8e-\	.	8g/	.	4r	.
.	.	8g\J	.	8b-/J)	.	.	.
*	*	*rep	*	*rep	*	*	*
2r	.	8e-\L	.	(8g/L	.	8.r	.
.	.	8g\	.	8b-/	.	.	.
!	!	!	!	!	!	!LO:TX:b:t=dolce	!
.	.	.	.	.	.	16ee-|\KL	.
.	.	8e-\	.	8g/	.	8.dd|\	.
.	.	8g\J	.	8b-/J)	.	.	.
*	*	*Xrep	*	*Xrep	*	*	*
.	.	.	.	.	.	16ee-|\Jk	.
=168	=168	=168	=168	=168	=168	=168	=168
!	!	!	!	!	!	!LO:TX:t=P:problem:takt po poprawkach głównego skryptora	!
2BB-/	.	8fL 8d\	.	8a-/L	.	8ff\	.
.	.	8B-\	.	8b-/	.	8r	.
.	.	8f 8d\	.	8a-/	.	2ff^<\	.
.	.	8B-\J	.	8b-/J	.	.	.
*	*	*rep	*	*rep	*	*	*
2D/	.	8fL 8d\	.	8a-/L	.	.	.
.	.	8B-\	.	8b-/	.	.	.
.	.	8f 8d\	.	8a-/	.	(16ee-X\LL	.
.	.	.	.	.	.	16dd\	.
.	.	8B-\J	.	8b-/J	.	16cc\	.
*	*	*Xrep	*	*Xrep	*	*	*
.	.	.	.	.	.	16b-\JJ)	.
=169	=169	=169	=169	=169	=169	=169	=169
(16E-\LL	.	8e-\L	.	8g/L	.	(4.bb-\	.
16D\	.	.	.	.	.	.	.
16E-\	.	8B-\	.	8b-/	.	.	.
16F\JJ	.	.	.	.	.	.	.
8G\)	.	8e-\	.	8g/	.	.	.
8r	.	8B-\J	.	8b-/J	.	8gg\	.
*	*	*rep	*	*rep	*	*	*
2r	.	8e-\L	.	8g/L	.	8.ee-\L)	.
.	.	8B-\	.	8b-/	.	.	.
.	.	.	.	.	.	16ee-|\K	.
.	.	8e-\	.	8g/	.	8.dd|\	.
.	.	8B-\J	.	8b-/J	.	.	.
*	*	*Xrep	*	*Xrep	*	*	*
.	.	.	.	.	.	16ee-|\Jk	.
=170	=170	=170	=170	=170	=170	=170	=170
!	!	!	!	!	!	!LO:TX:t=P:problem:takt po poprawkach głównego skryptora	!
.	.	.	.	.	.	8qeen/	.
2BB-/	.	8fL 8d\	.	8a-/L	.	8ff\	.
.	.	8B-\	.	8b-/	.	8r	.
.	.	8f 8d\	.	8a-/	.	2ff\	.
.	.	8B-\J	.	8b-/J	.	.	.
*	*	*rep	*	*rep	*	*	*
2D/	.	8fL 8d\	.	8a-/L	.	.	.
.	.	8B-\	.	8b-/	.	.	.
.	.	8f 8d\	.	8a-/	.	(16ee-X\LL	.
.	.	.	.	.	.	16dd\	.
.	.	8B-\J	.	8b-/J	.	16cc\	.
*	*	*Xrep	*	*Xrep	*	*	*
.	.	.	.	.	.	16b-\JJ)	.
=171	=171	=171	=171	=171	=171	=171	=171
.	.	.	.	.	.	8qb-/	.
(16E-\LL	.	8e-\L	.	8g/L	.	[4bb-\	.
16D\	.	.	.	.	.	.	.
16E-\	.	8B-\	.	8b-/	.	.	.
16F\JJ	.	.	.	.	.	.	.
8G\)	.	8e-\	.	8g/	.	16bb-\LL]	.
.	.	.	.	.	.	(16aan\	.
8r	.	8B-\J	.	8b-/J	.	16bb-\	.
.	.	.	.	.	.	16gg\JJ)	.
*	*	*rep	*	*rep	*	*	*
2r	.	8e-\L	.	8g/L	.	8.ee-\L	.
.	.	8B-\	.	8b-/	.	.	.
.	.	.	.	.	.	(8qff/	.
.	.	.	.	.	.	16ee-|\K)	.
.	.	8e-\	.	8g/	.	8.dd|\	.
.	.	8B-\J	.	8b-/J	.	.	.
*	*	*Xrep	*	*Xrep	*	*	*
.	.	.	.	.	.	16ee-|\Jk	.
!!LO:LB:g=original
=172	=172	=172	=172	=172	=172	=172	=172
!	!	!	!	!	!	!LO:TX:t=P:problem:takt po poprawkach głównego skryptora	!
.	.	.	.	.	.	(8qeen/	.
2BB-/	.	8d/L	.	8a-/L	.	8ff\)	.
.	.	8B-/	.	8b-/	.	8r	.
.	.	8d/	.	8a-/	.	[4ff^<\	.
.	.	8B-/J	.	8b-/J	.	.	.
*	*	*	*	*rep	*	*	*
2D/	.	8f/L	.	8a-/L	.	8ff\L]	.
.	.	8B-/	.	8b-/	.	16gg\L	.
.	.	.	.	.	.	16ff\JJ	.
!	!	!	!	!	!	!LO:SIC:v:s=16ee-	!
.	.	8f/	.	8a-/	.	16ee\LL	.
.	.	.	.	.	.	16dd\	.
.	.	8B-/J	.	8b-/J	.	(16cc\	.
*	*	*	*	*Xrep	*	*	*
.	.	.	.	.	.	16b-\JJ)	.
=173	=173	=173	=173	=173	=173	=173	=173
*tremolo	*	*	*	*	*	*	*
!LO:TX:t=P:problem:łuk powyżej	!LO:DY:a	!LO:TX:t=P:problem:łuk powyżej	!	!	!	!	!
(8C/L	fp	(8e-\L	.	(8cc/L	fp	4ee-\	.
8C/	.	8e-\	.	8g/)	.	.	.
8C/	.	8e-\	.	(8g'/	.	4r	.
8C/	.	8e-\	.	8g'/J	.	.	.
!	!	!	!	!LO:TX:t=P:problem:4 kropki i łuk poniżej	!	!	!
8C/	.	8e-\	.	8g/L	.	16r	.
.	.	.	.	.	.	(16ccc\LL	.
8C/	.	8e-\	.	8g/	.	16bbn\	<
.	.	.	.	.	.	16ccc\JJ	.
8C/	.	8e-\	.	8g/	.	16bb\LL)	.
.	.	.	.	.	.	16ccc\	[ >
8C/J)	.	8e-\J)	.	8g/J)	.	16.ddd\	.
.	.	.	.	.	.	32ccc\JJk	]]
=174	=174	=174	=174	=174	=174	=174	=174
!	!LO:DY:a	!	!	!LO:TX:t=P:problem:łuk poniżej	!	!	!
8AA-/L	fp	8e-L 8c\	.	(8f/L	fp	8.ccc\L	.
8AA-/	.	8e- 8c\	.	8f/	.	.	.
.	.	.	.	.	.	16ff|\Jk	.
8AA-/	.	8e- 8c\	.	8f/	.	[4ff|\	.
8AA-/J	.	8e- 8c\	.	8f/	.	.	.
8A-\L	.	8e- 8c\	.	8f/	.	8ff\L]	.
8A-\	.	8e- 8c\	.	8f/	.	(16een\L	.
.	.	.	.	.	.	16ff\JJ	.
8A-\	.	8e- 8c\	.	8f/	.	16gg\LL	.
.	.	.	.	.	.	16aa-\	.
8A-\J	.	8e-J 8c\	.	8f/J)	.	16bb-\	.
.	.	.	.	.	.	16ccc\JJ)	.
=175	=175	=175	=175	=175	=175	=175	=175
!	!LO:DY:a	!	!	!	!	!	!
8B-\L	fp	8e-\L	.	8g/L	fp	8.ccc\L	.
8B-\	.	8e-\	.	8g/	.	.	.
.	.	.	.	.	.	16bb-\Jk	.
8B-\	.	8e-\	.	8g/	.	4bb-\	.
8B-\J	.	8e-\J	.	8g/J	.	.	.
*	*	*Xtremolo	*	*	*	*	*
!	!LO:DY:a	!	!	!	!	!	!
8BB-/L	fp	8f\L	.	8a-/L	fp	(16aan\LL	<
.	.	.	.	.	.	16bb-\)	.
8BB-/	.	8f\	.	8a-/	.	16.ddd\	.
.	.	.	.	.	.	32ccc\JJk	.
8BB-/	.	8d\	.	8a-/	.	16bb-\LL	[ >
!	!	!	!	!	!	!LO:SIC:v:s=16aa-	!
.	.	.	.	.	.	16aa\	.
8BB-/J	.	8d\J	.	8a-/J	.	16gg\	]
*	*	*tremolo	*	*	*	*	*
.	.	.	.	.	.	16ff\JJ	.
!!LO:LB:g=original
=176	=176	=176	=176	=176	=176	=176	=176
!	!	!	!	!	!	!LO:TX:t=P:problem:takt po poprawkach głównego skryptora	!
8C/L	fp	8e-\L	fp	8g/L	fp	4ee-\	.
8C/	.	8e-\	.	8g/	.	.	.
8C/	.	8e-\	.	8g/	.	4r	.
8C/	.	8e-\	.	8g/	.	.	.
8C/	.	8e-\	.	8g/	.	16r	.
.	.	.	.	.	.	(16ccc\LL	.
8C/	.	8e-\	.	8g/	.	16bbn\	.
.	.	.	.	.	.	16ccc\JJ)	.
8C/	.	8e-\	.	8g/	.	16bb\LL	.
.	.	.	.	.	.	16ccc\	.
8C/J	.	8e-\J	.	8g/J	.	16.ddd\	.
.	.	.	.	.	.	32ccc\JJk	.
=177	=177	=177	=177	=177	=177	=177	=177
8AA-/L	fp	8e-\L	fp	8fL 8c/	fp	16ccc\LL	.
.	.	.	.	.	.	16bb-\	.
8AA-/	.	8e-\	.	8f 8c/	.	16aa-\	.
.	.	.	.	.	.	16gg\JJ	.
8AA-/	.	8e-\	.	8f 8c/	.	[4ff\	.
8AA-/J	.	8e-\	.	8f 8c/	.	.	.
8A-\L	.	8e-\	.	8f 8c/	.	16ff\LL]	.
.	.	.	.	.	.	(16ff\	.
8A-\	.	8e-\	.	8f 8c/	.	16een\	.
.	.	.	.	.	.	16ff\JJ	.
8A-\	.	8e-\	.	8f 8c/	.	16gg\LL	.
.	.	.	.	.	.	16aa-\	.
8A-\J	.	8e-\J	.	8fJ 8c/	.	16bb-\	.
.	.	.	.	.	.	16ccc\JJ)	.
=178	=178	=178	=178	=178	=178	=178	=178
8B-\L	.	8e-\L	.	8gL 8B-/	.	8.ccc\L	.
8B-\	.	8e-\	.	8g 8B-/	.	.	.
.	.	.	.	.	.	(16ccc-X^<|\Jk	.
8B-\	.	8e-\	.	8g 8B-/	.	4bb-\)	.
8B-\J	.	8e-\J	.	8gJ 8B-/	.	.	.
*	*	*Xtremolo	*	*	*	*	*
8BB-/L	.	8f\L	.	8a-L 8B-/	.	(16aan\LL	.
.	.	.	.	.	.	16bb-\)	.
8BB-/	.	8f\	.	8a- 8B-/	.	16.ddd\	.
.	.	.	.	.	.	32cccn\JJk	>
8BB-/	.	8d\	.	8a- 8B-/	.	16bb-\LL	.
!	!	!	!	!	!	!LO:TX:t=P:problem:♭ above	!
.	.	.	.	.	.	16aa-X\	.
8BB-/J	.	8d\J	.	8a-J 8B-/	.	16gg\	.
*Xtremolo	*	*	*	*Xtremolo	*	*	*
.	.	.	.	.	.	16ff\JJ	]
=179	=179	=179	=179	=179	=179	=179	=179
!	!	!	!	!	!LO:DY:a	!LO:TX:a:t=piu Moſso	!
8E-/L	.	8e-\L	.	8gL 8B-|/	f	8ee-|\L	.
8BB-/	.	8e-\J	.	8gJ 8B-|/	.	(16ccc\L	.
.	.	.	.	.	.	16bb-\JJ)	.
8E-/	.	8r	.	8r	.	8gg\L	.
!	!	!	!	!	!LO:DY:a	!	!
8BB-/J	.	8e-\	.	8g 8B-'/	p	(16ccc-X^<\L	.
.	.	.	.	.	.	16bb-\JJ)	.
*rep	*	*	*	*	*	*	*
8E-/L	.	8r	.	8r	.	8ee-\L	.
8BB-/	.	8e-\	.	8g 8B-'/	.	(16cccn\L	.
.	.	.	.	.	.	16bb-\JJ)	.
8E-/	.	8r	.	8r	.	8gg|\L	.
8BB-/J	.	8e-\	.	8g 8B-'/	.	(16ccc-X^<\L	.
*Xrep	*	*	*	*	*	*	*
.	.	.	.	.	.	16bb-\JJ)	.
!!LO:PB:g=original
=180	=180	=180	=180	=180	=180	=180	=180
*tremolo	*	*	*	*	*	*Xtuplet	*
8D/L	.	8r	.	8r	.	12aa-X|\L	.
.	.	.	.	.	.	12bb-|\	.
8BB-/	.	8f\	.	8a- 8B-/	.	.	.
.	.	.	.	.	.	12aa-|\J	.
8D/	.	8r	.	8r	.	12gg'\L	.
.	.	.	.	.	.	12ff'\	.
8BB-/J	.	8f\	.	8a- 8B-/	.	.	.
.	.	.	.	.	.	12ee-'\J	.
*rep	*	*rep	*	*rep	*	*	*
8D/L	.	8r	.	8r	.	12dd'\L	.
.	.	.	.	.	.	12cc'\	.
8BB-/	.	8f\	.	8a- 8B-/	.	.	.
.	.	.	.	.	.	12b-'\J	.
*	*	*Xrep	*	*Xrep	*	*	*
*	*	*rep	*	*rep	*	*	*
8D/	.	8r	.	8r	.	12a-'>/L	.
.	.	.	.	.	.	12g'>/	.
8BB-/J	.	8f\	.	8a- 8B-/	.	.	.
*Xrep	*	*Xrep	*	*Xrep	*	*	*
.	.	.	.	.	.	12f'>/J	.
=181	=181	=181	=181	=181	=181	=181	=181
!	!	!	!	!	!	!LO:TX:t=P:problem:mixed beam	!
8E-/L	fp	8e-\L	fp	8gL 8B-'/	fp	8e-'>/L	.
8BB-/	.	8e-\J	.	8gJ 8B-'/	.	(16ccc\L	.
.	.	.	.	.	.	16bb-\JJ)	.
8E-/	.	8r	.	8r	.	8gg|\L	.
8BB-/J	.	8e-\	.	8g 8B-/	.	(16ccc-X^<\L	.
.	.	.	.	.	.	16bb-\JJ)	.
*rep	*	*rep	*	*rep	*	*	*
8E-/L	.	8r	.	8r	.	8ee-|\L	.
8BB-/	.	8e-\	.	8g 8B-/	.	(16cccn\L	.
.	.	.	.	.	.	16bb-\JJ)	.
*	*	*Xrep	*	*Xrep	*	*	*
*	*	*rep	*	*rep	*	*	*
8E-/	.	8r	.	8r	.	8gg|\L	.
8BB-/J	.	8e-\	.	8g 8B-/	.	(16ccc-X^<\L	.
*Xrep	*	*Xrep	*	*Xrep	*	*	*
.	.	.	.	.	.	16bb-\JJ)	.
=182	=182	=182	=182	=182	=182	=182	=182
!	!	!	!	!LO:TX:t=P:problem:takt po poprawkach głównego skryptora	!	!	!
8D/L	.	8f\L	.	8a-L 8B-/	.	12aa-X\L	.
.	.	.	.	.	.	12bb-\	.
8BB-/	.	8f\J	.	8a-J 8B-/	.	.	.
.	.	.	.	.	.	12aa-\J	.
8D/	.	8r	.	8r	.	12gg\L	.
.	.	.	.	.	.	12ff\	.
8BB-/J	.	8f\	.	8a- 8B-/	.	.	.
.	.	.	.	.	.	12ee-\J	.
*rep	*	*rep	*	*rep	*	*	*
8D/L	.	8r	.	8r	.	8dd\L	.
8BB-/	.	8f\	.	8a- 8B-/	.	16.ddd\L	.
.	.	.	.	.	.	32ccc\JJ	.
*	*	*Xrep	*	*Xrep	*	*	*
*	*	*rep	*	*rep	*	*	*
8D/	.	8r	.	8r	.	16bb-\LL	.
.	.	.	.	.	.	16aa-\	.
8BB-/J	.	8f\	.	8a- 8B-/	.	16gg\	.
*Xrep	*	*Xrep	*	*Xrep	*	*	*
*Xtremolo	*	*	*	*	*	*	*
.	.	.	.	.	.	16ff\JJ	.
=183	=183	=183	=183	=183	=183	=183	=183
!LO:TX:t=P:problem:takt po poprawkach głównego skryptora	!	!	!	!	!	!LO:TX:t=P:problem:takt po poprawkach głównego skryptora	!
16E-\LL	f	16e-\LL	f	16ee-LL 16g\	f	(16ee-\LL	ff
16D\	.	16d\	.	16dd\	.	16dd\)	.
16E-\	.	16e-\	.	16ee-\	.	16ee-|\	.
16F\JJ	.	16f\JJ	.	16ff\JJ	.	16ff|\JJ	.
[4G\	.	[4g\	.	[4gg\	.	[4gg|\	.
8.G\L]	.	8.g\L]	.	8.gg\L]	.	8.gg\L]	.
!LO:TX:a:t=b	!	!	!	!	!	!	!
16BB-\K	.	16B-\K	.	16b-\K	.	16b-|\K	.
!LO:TX:a:t=c	!	!	!	!	!	!	!
8.C\	.	8.c\	.	8.cc\	.	8.cc|\	.
!LO:TX:a:t=d	!	!	!	!	!	!	!
16D\Jk	.	16d\Jk	.	16dd\Jk	.	16dd|\Jk	.
=184	=184	=184	=184	=184	=184	=184	=184
!	!	!LO:TX:t=Col b:	!	!LO:TX:t=Uniſ	!	!	!
16E-\LL	.	16e-yy\LL	.	(yy16ee-yy\LL	.	(16ee-\LL	.
16D\	.	16dyy\	.	16ddyy\	.	16dd\	.
16E-\	.	16e-yy\	.	16ee-yy|\	.	16ee-|\	.
16F\JJ	.	16fyy\JJ	.	16ffyy|\JJ)	.	16ff|\JJ)	.
[4G\	.	[yy4gyy\	.	[yy4ggyy|\	.	[4gg|\	.
8.G\L]	.	8.gyy\L]	.	8.ggyy\L]	.	8.gg\L]	.
16BB-\K	.	16B-yy\K	.	16b-yy|\K	.	16b-|\K	.
8.C\	.	8.cyy\	.	8.ccyy|\	.	8.cc|\	.
16D\Jk	.	16dyy\Jk	.	16ddyy|\Jk	.	16dd|\Jk	.
!!LO:LB:g=original
=185	=185	=185	=185	=185	=185	=185	=185
16E-\LL	.	16e-yy\LL	.	16ee-yy\LL	.	16ee-\LL	.
16D\	.	16dyy\	.	16ddyy\	.	16dd\	.
16E-\	.	16e-yy\	.	16ee-yy\	.	16ee-\	.
16F\JJ	.	16fyy\JJ	.	16ffyy\JJ	.	16ff\JJ	.
16G\LL	.	16gyy\LL	.	16ggyy\LL	.	16gg\LL	.
16F\	.	16fyy\	.	16ffyy\	.	16ff\	.
16G\	.	16gyy\	.	16ggyy\	.	16gg\	.
16A-\JJ	.	16a-yy\JJ	.	16aa-yy\JJ	.	16aa-\JJ	.
16B-\LL	.	16b-yy\LL	.	16bb-yy\LL	.	16bb-\LL	.
16An\	.	16anyy\	.	16aanyy\	.	16aan\	.
16A-X\	.	16a-yyX\	.	16aa-yyX\	.	16aa-X\	.
16G\JJ	.	16gyy\JJ	.	16ggyy\JJ	.	16gg\JJ	.
16F\LL	.	16fyy\LL	.	16ffyy\LL	.	16ff\LL	.
16E-\	.	16e-yy\	.	16ee-yy\	.	16ee-\	.
16D\	.	16dyy\	.	16ddyy\	.	16dd\	.
16C\JJ	.	16cyy\JJ	.	16ccyy\JJ	.	16cc\JJ	.
=186	=186	=186	=186	=186	=186	=186	=186
4BB-/	.	4B-/	.	4b-\	.	4b-\	.
4r	.	4B-/	.	4gg 4b- 4e- 4G\	.	4eee- 4gg 4b-\	.
4BB-/	.	4r	.	4r	.	4r	.
4r	.	4B-/	.	4ff 4b- 4d\	.	4ddd 4ff 4b-\	.
=187	=187	=187	=187	=187	=187	=187	=187
!	!	!LO:TX:t=P:problem:t. 187-189 zapisany odnośnikiem do vc	!	!LO:TX:t=P:problem:takt po poprawkach głównego skryptora	!	!	!
16E-\LL	.	16e-yy\LL	.	(16ee-\LL	.	16ee-\LL	.
16D\	.	16dyy\	.	16dd\	.	16dd\	.
16E-\	.	16e-yy\	.	16ee-\	.	16ee-\	.
16F\JJ	.	16fyy\JJ	.	16ff\JJ	.	16ff\JJ	.
[4G\	.	[yy4gyy\	.	[4gg\)	.	[4gg\	.
8.G\L]	.	8.gyy\L]	.	8.gg\L]	.	8.gg\L]	.
16BB-\K	.	16B-yy\K	.	16b-\K	.	16b-|\K	.
8.C\	.	8.cyy\	.	8.cc\	.	8.cc|\	.
16D\Jk	.	16dyy\Jk	.	16dd\Jk	.	16dd|\Jk	.
=188	=188	=188	=188	=188	=188	=188	=188
!LO:TX:t=P:problem:t. 188-189 zapisany odnośnikiem	!	!	!	!LO:TX:t=P:problem:t. 188 zapisany odnośnikiem do vl 1	!	!	!
16E-yy\LL	.	16e-yy\LL	.	16ee-yy\LL	.	16ee-\LL	.
16Dyy\	.	16dyy\	.	16ddyy\	.	16dd\	.
16E-yy\	.	16e-yy\	.	16ee-yy\	.	16ee-\	.
16Fyy\JJ	.	16fyy\JJ	.	16ffyy\JJ	.	16ff\JJ	.
[yy4Gyy\	.	[yy4gyy\	.	[yy4ggyy\	.	[4gg\	.
8.Gyy\L]	.	8.gyy\L]	.	8.ggyy\L]	.	8.gg\L]	.
16BB-yy\K	.	16B-yy\K	.	16b-yy\K	.	16b-\K	.
8.Cyy\	.	8.cyy\	.	8.ccyy\	.	8.cc\	.
16Dyy\Jk	.	16dyy\Jk	.	16ddyy\Jk	.	16dd\Jk	.
=189	=189	=189	=189	=189	=189	=189	=189
16E-yy\LL	.	16e-yy\LL	.	16ee-yy\LL	.	16ee-\LL	.
16Dyy\	.	16dyy\	.	16ddyy\	.	16dd\	.
16E-yy\	.	16e-yy\	.	16ee-yy\	.	16ee-\	.
16Fyy\JJ	.	16fyy\JJ	.	16ffyy\JJ	.	16ff\JJ	.
16Gyy\LL	.	16gyy\LL	.	16ggyy\LL	.	16gg\LL	.
16Fyy\	.	16fyy\	.	16ffyy\	.	16ff\	.
16Gyy\	.	16gyy\	.	16ggyy\	.	16gg\	.
!!LO:LB:g=original
16A-yy\JJ	.	16a-yy\JJ	.	16aa-yy\JJ	.	16aa-\JJ	.
16B-\LL	.	16b-yy\LL	.	16bb-yy\LL	.	16bb-\LL	.
16An\	.	16anyy\	.	16aanyy\	.	16aan\	.
16A-X\	.	16a-yyX\	.	16aa-yyX\	.	16aa-X\	.
16G\JJ	.	16gyy\JJ	.	16ggyy\JJ	.	16gg\JJ	.
16F\LL	.	16fyy\LL	.	16ffyy\LL	.	16ff\LL	.
16E-\	.	16e-yy\	.	16ee-yy\	.	16ee-\	.
16D\	.	16dyy\	.	16ddyy\	.	16dd\	.
16C\JJ	.	16cyy\JJ	.	16ccyy\JJ	.	16cc\JJ	.
=190	=190	=190	=190	=190	=190	=190	=190
4BB-/	.	4B-/	.	4b-\	.	4b-\	.
4r	.	4r	.	4r	.	4r	.
!	!	!	!	!LO:TX:t=P:problem:wykreślona fermata	!	!	!
8BB-|/	fff	8dd 8f 8B-\	fff	8aa- 8b- 8d|\	.	8ddd 8ff 8b-|\	fff
16r;	.	16r;	.	16r;	.	16r;	.
!	!LO:DY:a	!	!	!	!	!LO:TX:a:t=Tempo 1mo	!
16BB-|/KL	p	16r	.	16r	.	16r	.
8.E-|/	.	4r	.	4r	.	4r	.
(16F/Jk	.	.	.	.	.	.	.
=191	=191	=191	=191	=191	=191	=191	=191
2G\)	.	4r	.	4r	.	4r	.
!	!	!	!	!	!	!LO:TX:b:t=pizic&colon;	!
.	.	4B-/	.	4g/	.	4ee-\	.
2E-\	.	4r	.	4r	.	4r	.
.	.	4B-/	.	4g/	.	4ee-\	.
=192	=192	=192	=192	=192	=192	=192	=192
4D|\	.	4r	.	4r	.	4r	.
4F|\	.	4B-/	.	4a-/	.	4dd\	.
8.r	.	4B-/	.	4a-/	.	4dd\	.
16BB-/KL	.	.	.	.	.	.	.
8.F/	.	4r	.	4r	.	4r	.
(16G/Jk	.	.	.	.	.	.	.
=193	=193	=193	=193	=193	=193	=193	=193
2A-\)	.	4r	.	4r	.	4r	.
.	.	4B-/	.	4f/	.	4dd\	.
2F\	.	4r	.	4r	.	4r	.
.	.	4B-/	.	4a-/	.	4dd\	.
=194	=194	=194	=194	=194	=194	=194	=194
4E-|\	.	4r	.	4r	.	4r	.
4G|\	.	4B-/	.	4g/	.	4ee-\	.
8.r	.	4B-/	.	4g/	.	4ee-\	.
16E-\KL	.	.	.	.	.	.	.
8.G\	.	4r	.	4r	.	4r	.
16A-\Jk	.	.	.	.	.	.	.
!!LO:PB:g=original
=195	=195	=195	=195	=195	=195	=195	=195
!	!	!LO:TX:t=P:problem:t. 195-196 po poprawkach głównego skryptora	!	!LO:TX:t=P:problem:t. 195-198 po poprawkach głównego skryptora	!	!LO:TX:t=P:problem:takt po poprawkach głównego skryptora	!
(2B-\	>	4r	.	4r	.	4r	.
.	.	4e-/	.	4b-\	.	4gg\	.
8A-\L	]	4e-/	.	4b-\	.	4gg\	.
8G\	.	.	.	.	.	.	.
8F\	<	4r	.	4r	.	4r	.
8E-\J)	[[	.	.	.	.	.	.
=196	=196	=196	=196	=196	=196	=196	=196
(2c\	>	4r	.	4r	.	4r	.
.	.	4e-/	.	4a-/	.	4ff\	.
8B-\L	]	4e-/	.	4a-/	.	4ff\	.
8A-\	.	.	.	.	.	.	.
8G\	.	4r	.	4r	.	4r	.
8F\J)	.	.	.	.	.	.	.
=197	=197	=197	=197	=197	=197	=197	=197
!	!	!	!	!	!	!LO:TX:t=P:problem:t. 197-198 po poprawkach głównego skryptora	!
4.E-\	.	4r	.	4r	.	4r	.
.	.	4e-\	.	4b-\	.	4gg\	.
8G\	.	.	.	.	.	.	.
(4.BB-/	.	4r	.	4r	.	4r	.
.	.	4f\	.	4a-\	.	4ff\	.
16C/LL	.	.	.	.	.	.	.
16D/JJ	.	.	.	.	.	.	.
=198	=198	=198	=198	=198	=198	=198	=198
4E-\)	.	4g\	.	4g\	.	4ee-\	.
!	!	!	!	!	!	!LO:TX:a:t=l’arco	!
4r	.	4r	.	4r	.	4r	.
2r	.	(2b-\	mf > ]]	(2dd\	mf > ]]	(2bb-\	mf > ]]
=199	=199	=199	=199	=199	=199	=199	=199
2r	.	4ee-\)	.	4ee-\)	.	4gg\)	.
.	.	4r	.	4r	.	4r	.
4BB-/	.	4f 4B-\	ff	4aa- 4b- 4d\	ff	4ddd 4ff 4b-\	ff
4r	.	4r	.	4r	.	4r	.
=200	=200	=200	=200	=200	=200	=200	=200
!	!	!	!	!	!	!LO:TX:t=P:problem:takt po poprawkach głównego skryptora	!
8.E-/L	.	4e- 4G/	.	4gg 4b- 4e-\	.	4eee- 4gg 4b-\	.
16E-/K	.	.	.	.	.	.	.
8.BB-/	.	4e- 4G/	.	4ee- 4g 4B-/	.	4ee- 4g/	.
16GG/Jk	.	.	.	.	.	.	.
8.EE-/	.	8.e- 8.G/	.	8.ee- 8.g 8.B-/	.	8.ee- 8.g 8.B-/	.
16ryy	.	16ryy	.	16ryy	.	16ryy	.
4ryy	.	4ryy	.	4ryy	.	4ryy	.
==	==	==	==	==	==	==	==
*-	*-	*-	*-	*-	*-	*-	*-
!!!system-decoration: [(s1,s2,s3,s4)]
!!!ENC: Kamil Watkowski
!!!END: 2021-07-10
!!!RDF**kern: > = above
!!!RDF**kern: < = below
!!!RDF**kern: | = vertical stroke
